(G-CODE GENERATED BY FLATCAM v8.994 - www.flatcam.org - Version Date: 2020/11/7)

(Name: pcb-F.Cu.gbr_inverted_ncc_cnc)
(Type: G-code from Geometry)
(Units: MM)

(Created on середа, 28 липня 2021 at 23:14)

(This preprocessor is used with a motion controller loaded with GRBL firmware. )
(It is for the case when it is used together with a LASER connected on the SPINDLE connector.)

(Feedrate: 120.0 mm/min)
(Feedrate rapids: 1500.0 mm/min)

(Z Focus: 2.0 mm)
(Steps per circle: 64)
(Preprocessor Geometry: GRBL_laser)

(X range: -550.2500 ... -484.7500  mm)
(Y range:  359.2298 ...  400.2500  mm)

(Laser Power - Spindle Speed: 0.0)

G21
G90
G17
G94

G01 F120.00

M5
G01 F120.00
G00 X-485.6510 Y360.1700
G01 F60.00
M03
G01 F120.00
G01 X-484.7500 Y360.1700 F120.00
G01 X-484.7500 Y360.1100 F120.00
G01 X-550.2500 Y360.1100 F120.00
G01 X-550.2500 Y360.0500 F120.00
G01 X-484.7500 Y360.0500 F120.00
G01 X-484.7500 Y359.9900 F120.00
G01 X-550.2500 Y359.9900 F120.00
G01 X-550.2500 Y359.9300 F120.00
G01 X-484.7500 Y359.9300 F120.00
G01 X-484.7500 Y359.8700 F120.00
G01 X-550.2500 Y359.8700 F120.00
G01 X-550.2500 Y359.8100 F120.00
G01 X-484.7500 Y359.8100 F120.00
G01 X-484.7500 Y359.7500 F120.00
G01 X-550.2500 Y359.7500 F120.00
G01 X-550.2500 Y359.6900 F120.00
G01 X-484.7500 Y359.6900 F120.00
G01 X-484.7500 Y359.6300 F120.00
G01 X-550.2500 Y359.6300 F120.00
G01 X-550.2500 Y359.5700 F120.00
G01 X-484.7500 Y359.5700 F120.00
G01 X-484.7500 Y359.5100 F120.00
G01 X-550.2500 Y359.5100 F120.00
G01 X-550.2500 Y359.4500 F120.00
G01 X-484.7500 Y359.4500 F120.00
G01 X-484.7500 Y359.3900 F120.00
G01 X-550.2500 Y359.3900 F120.00
G01 X-550.2500 Y359.3300 F120.00
G01 X-484.7500 Y359.3300 F120.00
G01 X-484.7500 Y359.2700 F120.00
G01 X-550.2500 Y359.2700 F120.00
M5
G00 X-485.6500 Y360.2300
G01 F60.00
M03
G01 F120.00
G01 X-484.7500 Y360.2300 F120.00
G01 X-484.7500 Y360.2900 F120.00
G01 X-485.6500 Y360.2900 F120.00
G01 X-485.6500 Y360.3500 F120.00
G01 X-484.7500 Y360.3500 F120.00
G01 X-484.7500 Y360.4100 F120.00
G01 X-485.6500 Y360.4100 F120.00
G01 X-485.6500 Y360.4700 F120.00
G01 X-484.7500 Y360.4700 F120.00
G01 X-484.7500 Y360.5300 F120.00
G01 X-485.6500 Y360.5300 F120.00
G01 X-485.6500 Y360.5900 F120.00
G01 X-484.7500 Y360.5900 F120.00
G01 X-484.7500 Y360.6500 F120.00
G01 X-530.1515 Y382.3515 F120.00
G01 X-530.0724 Y382.4388 F120.00
G01 X-530.0400 Y382.4825 F120.00
G01 X-530.0400 Y383.9175 F120.00
M5
G00 X-529.9800 Y383.8295
G01 F60.00
M03
G01 F120.00
G01 X-529.9800 Y382.5705 F120.00
G01 X-529.9200 Y382.6803 F120.00
G01 X-529.9200 Y383.7197 F120.00
G01 X-529.8600 Y383.5714 F120.00
G01 X-529.8600 Y382.8286 F120.00
M5
G00 X-489.6383 Y361.6100
G01 F60.00
M03
G01 F120.00
G01 X-486.3617 Y361.6100 F120.00
G01 X-486.4161 Y361.5500 F120.00
G01 X-489.5839 Y361.5500 F120.00
G01 X-489.5295 Y361.4900 F120.00
G01 X-486.4705 Y361.4900 F120.00
G01 X-486.5347 Y361.4300 F120.00
G01 X-489.4653 Y361.4300 F120.00
G01 X-489.3991 Y361.3700 F120.00
G01 X-486.6009 Y361.3700 F120.00
G01 X-486.6739 Y361.3100 F120.00
G01 X-489.3261 Y361.3100 F120.00
G01 X-489.2452 Y361.2500 F120.00
G01 X-486.7548 Y361.2500 F120.00
G01 X-486.8429 Y361.1900 F120.00
G01 X-489.1571 Y361.1900 F120.00
G01 X-489.0570 Y361.1300 F120.00
G01 X-486.9430 Y361.1300 F120.00
G01 X-487.0582 Y361.0700 F120.00
G01 X-488.9418 Y361.0700 F120.00
G01 X-488.8124 Y361.0100 F120.00
G01 X-487.1876 Y361.0100 F120.00
G01 X-487.3553 Y360.9500 F120.00
G01 X-488.6447 Y360.9500 F120.00
G01 X-488.4102 Y360.8900 F120.00
G01 X-487.5898 Y360.8900 F120.00
M5
M5
M5
G00 Z15.00
