(G-CODE GENERATED BY FLATCAM v8.994 - www.flatcam.org - Version Date: 2020/11/7)

(Name: pcb-F.Cu.gbr_inverted_ncc_cnc)
(Type: G-code from Geometry)
(Units: MM)

(Created on середа, 28 липня 2021 at 23:14)

(This preprocessor is used with a motion controller loaded with GRBL firmware. )
(It is for the case when it is used together with a LASER connected on the SPINDLE connector.)

(Feedrate: 120.0 mm/min)
(Feedrate rapids: 1500.0 mm/min)

(Z Focus: 2.0 mm)
(Steps per circle: 64)
(Preprocessor Geometry: GRBL_laser)

(X range: -550.2500 ... -484.7500  mm)
(Y range:  359.2298 ...  400.2500  mm)

(Laser Power - Spindle Speed: 0.0)

G21
G90
G17
G94

G01 F120.00

M5
G01 F120.00
G00 X-485.6510 Y360.1700
G01 F60.00
M03
G01 F120.00
G01 X-484.7500 Y360.1700 F120.00
G01 X-484.7500 Y360.1100 F120.00
G01 X-550.2500 Y360.1100 F120.00
G01 X-550.2500 Y360.0500 F120.00
G01 X-484.7500 Y360.0500 F120.00
G01 X-484.7500 Y359.9900 F120.00
G01 X-550.2500 Y359.9900 F120.00
G01 X-550.2500 Y359.9300 F120.00
G01 X-484.7500 Y359.9300 F120.00
G01 X-484.7500 Y359.8700 F120.00
G01 X-550.2500 Y359.8700 F120.00
G01 X-550.2500 Y359.8100 F120.00
G01 X-484.7500 Y359.8100 F120.00
G01 X-484.7500 Y359.7500 F120.00
G01 X-550.2500 Y359.7500 F120.00
G01 X-550.2500 Y359.6900 F120.00
G01 X-484.7500 Y359.6900 F120.00
G01 X-484.7500 Y359.6300 F120.00
G01 X-550.2500 Y359.6300 F120.00
G01 X-550.2500 Y359.5700 F120.00
G01 X-484.7500 Y359.5700 F120.00
G01 X-484.7500 Y359.5100 F120.00
G01 X-550.2500 Y359.5100 F120.00
G01 X-550.2500 Y359.4500 F120.00
G01 X-484.7500 Y359.4500 F120.00
G01 X-484.7500 Y359.3900 F120.00
G01 X-550.2500 Y359.3900 F120.00
G01 X-550.2500 Y359.3300 F120.00
G01 X-484.7500 Y359.3300 F120.00
G01 X-484.7500 Y359.2700 F120.00
G01 X-550.2500 Y359.2700 F120.00
M5
G00 X-485.6500 Y360.2300
G01 F60.00
M03
G01 F120.00
G01 X-484.7500 Y360.2300 F120.00
G01 X-484.7500 Y360.2900 F120.00
G01 X-485.6500 Y360.2900 F120.00
G01 X-485.6500 Y360.3500 F120.00
G01 X-484.7500 Y360.3500 F120.00
G01 X-484.7500 Y360.4100 F120.00
G01 X-485.6500 Y360.4100 F120.00
G01 X-485.6500 Y360.4700 F120.00
G01 X-484.7500 Y360.4700 F120.00
G01 X-484.7500 Y360.5300 F120.00
G01 X-485.6500 Y360.5300 F120.00
G01 X-485.6500 Y360.5900 F120.00
G01 X-484.7500 Y360.5900 F120.00
G01 X-484.7500 Y360.6500 F120.00
G01 X-485.6500 Y360.6500 F120.00
G01 X-485.6500 Y360.7100 F120.00
G01 X-484.7500 Y360.7100 F120.00
G01 X-484.7500 Y360.7700 F120.00
G01 X-485.6500 Y360.7700 F120.00
G01 X-485.6500 Y360.8300 F120.00
G01 X-484.7500 Y360.8300 F120.00
G01 X-484.7500 Y360.8900 F120.00
G01 X-485.6500 Y360.8900 F120.00
G01 X-485.6500 Y360.9500 F120.00
G01 X-484.7500 Y360.9500 F120.00
G01 X-484.7500 Y361.0100 F120.00
G01 X-485.6500 Y361.0100 F120.00
G01 X-485.6500 Y361.0700 F120.00
G01 X-484.7500 Y361.0700 F120.00
G01 X-484.7500 Y361.1300 F120.00
G01 X-485.6500 Y361.1300 F120.00
G01 X-485.6500 Y361.1900 F120.00
G01 X-484.7500 Y361.1900 F120.00
G01 X-484.7500 Y361.2500 F120.00
G01 X-485.6500 Y361.2500 F120.00
G01 X-485.6500 Y361.3100 F120.00
G01 X-484.7500 Y361.3100 F120.00
G01 X-484.7500 Y361.3700 F120.00
G01 X-485.6500 Y361.3700 F120.00
G01 X-485.6500 Y361.4300 F120.00
G01 X-484.7500 Y361.4300 F120.00
G01 X-484.7500 Y361.4900 F120.00
G01 X-485.6500 Y361.4900 F120.00
G01 X-485.6500 Y361.5500 F120.00
G01 X-484.7500 Y361.5500 F120.00
G01 X-484.7500 Y361.6100 F120.00
G01 X-485.6500 Y361.6100 F120.00
G01 X-485.6500 Y361.6700 F120.00
G01 X-484.7500 Y361.6700 F120.00
G01 X-484.7500 Y361.7300 F120.00
G01 X-485.6500 Y361.7300 F120.00
G01 X-485.6500 Y361.7900 F120.00
G01 X-484.7500 Y361.7900 F120.00
G01 X-484.7500 Y361.8500 F120.00
G01 X-485.6500 Y361.8500 F120.00
G01 X-485.6500 Y361.9100 F120.00
G01 X-484.7500 Y361.9100 F120.00
G01 X-484.7500 Y361.9700 F120.00
G01 X-485.6500 Y361.9700 F120.00
G01 X-485.6500 Y362.0300 F120.00
G01 X-484.7500 Y362.0300 F120.00
G01 X-484.7500 Y362.0900 F120.00
G01 X-485.6500 Y362.0900 F120.00
G01 X-485.6500 Y362.1500 F120.00
G01 X-484.7500 Y362.1500 F120.00
G01 X-484.7500 Y362.2100 F120.00
G01 X-485.6500 Y362.2100 F120.00
G01 X-485.6500 Y362.2700 F120.00
G01 X-484.7500 Y362.2700 F120.00
G01 X-484.7500 Y362.3300 F120.00
G01 X-485.6500 Y362.3300 F120.00
G01 X-485.6500 Y362.3900 F120.00
G01 X-484.7500 Y362.3900 F120.00
G01 X-484.7500 Y362.4500 F120.00
G01 X-485.6500 Y362.4500 F120.00
G01 X-485.6500 Y362.5100 F120.00
G01 X-484.7500 Y362.5100 F120.00
G01 X-484.7500 Y362.5700 F120.00
G01 X-485.6500 Y362.5700 F120.00
G01 X-485.6500 Y362.6300 F120.00
G01 X-484.7500 Y362.6300 F120.00
G01 X-484.7500 Y362.6900 F120.00
G01 X-485.6500 Y362.6900 F120.00
G01 X-485.6500 Y362.7500 F120.00
G01 X-484.7500 Y362.7500 F120.00
G01 X-484.7500 Y362.8100 F120.00
G01 X-485.6500 Y362.8100 F120.00
G01 X-485.6500 Y362.8700 F120.00
G01 X-484.7500 Y362.8700 F120.00
G01 X-484.7500 Y362.9300 F120.00
G01 X-485.6500 Y362.9300 F120.00
G01 X-485.6500 Y362.9900 F120.00
G01 X-484.7500 Y362.9900 F120.00
G01 X-484.7500 Y363.0500 F120.00
G01 X-485.6500 Y363.0500 F120.00
G01 X-485.6500 Y363.1100 F120.00
G01 X-484.7500 Y363.1100 F120.00
G01 X-484.7500 Y363.1700 F120.00
G01 X-485.6500 Y363.1700 F120.00
G01 X-485.6500 Y363.2300 F120.00
G01 X-484.7500 Y363.2300 F120.00
G01 X-484.7500 Y363.2900 F120.00
G01 X-485.6500 Y363.2900 F120.00
G01 X-485.6500 Y363.3500 F120.00
G01 X-484.7500 Y363.3500 F120.00
G01 X-484.7500 Y363.4100 F120.00
G01 X-485.6500 Y363.4100 F120.00
G01 X-485.6500 Y363.4700 F120.00
G01 X-484.7500 Y363.4700 F120.00
G01 X-484.7500 Y363.5300 F120.00
G01 X-485.6500 Y363.5300 F120.00
G01 X-485.6500 Y363.5900 F120.00
G01 X-484.7500 Y363.5900 F120.00
G01 X-484.7500 Y363.6500 F120.00
G01 X-485.6500 Y363.6500 F120.00
G01 X-485.6500 Y363.7100 F120.00
G01 X-484.7500 Y363.7100 F120.00
G01 X-484.7500 Y363.7700 F120.00
G01 X-485.6500 Y363.7700 F120.00
G01 X-485.6500 Y363.8300 F120.00
G01 X-484.7500 Y363.8300 F120.00
G01 X-484.7500 Y363.8900 F120.00
G01 X-485.6500 Y363.8900 F120.00
G01 X-485.6500 Y363.9500 F120.00
G01 X-484.7500 Y363.9500 F120.00
G01 X-484.7500 Y364.0100 F120.00
G01 X-485.6500 Y364.0100 F120.00
G01 X-485.6500 Y364.0700 F120.00
G01 X-484.7500 Y364.0700 F120.00
G01 X-484.7500 Y364.1300 F120.00
G01 X-485.6500 Y364.1300 F120.00
G01 X-485.6500 Y364.1900 F120.00
G01 X-484.7500 Y364.1900 F120.00
G01 X-484.7500 Y364.2500 F120.00
G01 X-485.6500 Y364.2500 F120.00
G01 X-485.6500 Y364.3100 F120.00
G01 X-484.7500 Y364.3100 F120.00
G01 X-484.7500 Y364.3700 F120.00
G01 X-485.6500 Y364.3700 F120.00
G01 X-485.6500 Y364.4300 F120.00
G01 X-484.7500 Y364.4300 F120.00
G01 X-484.7500 Y364.4900 F120.00
G01 X-485.6500 Y364.4900 F120.00
G01 X-485.6500 Y364.5500 F120.00
G01 X-484.7500 Y364.5500 F120.00
G01 X-484.7500 Y364.6100 F120.00
G01 X-485.6500 Y364.6100 F120.00
G01 X-485.6500 Y364.6700 F120.00
G01 X-484.7500 Y364.6700 F120.00
G01 X-484.7500 Y364.7300 F120.00
G01 X-485.6500 Y364.7300 F120.00
G01 X-485.6500 Y364.7900 F120.00
G01 X-484.7500 Y364.7900 F120.00
G01 X-484.7500 Y364.8500 F120.00
G01 X-485.6500 Y364.8500 F120.00
G01 X-485.6500 Y364.9100 F120.00
G01 X-484.7500 Y364.9100 F120.00
G01 X-484.7500 Y364.9700 F120.00
G01 X-485.6500 Y364.9700 F120.00
G01 X-485.6500 Y365.0300 F120.00
G01 X-484.7500 Y365.0300 F120.00
G01 X-484.7500 Y365.0900 F120.00
G01 X-485.6500 Y365.0900 F120.00
G01 X-485.6500 Y365.1500 F120.00
G01 X-484.7500 Y365.1500 F120.00
G01 X-484.7500 Y365.2100 F120.00
G01 X-485.6500 Y365.2100 F120.00
G01 X-485.6500 Y365.2700 F120.00
G01 X-484.7500 Y365.2700 F120.00
G01 X-484.7500 Y365.3300 F120.00
G01 X-485.6500 Y365.3300 F120.00
G01 X-485.6500 Y365.3900 F120.00
G01 X-484.7500 Y365.3900 F120.00
G01 X-484.7500 Y365.4500 F120.00
G01 X-485.6500 Y365.4500 F120.00
G01 X-485.6500 Y365.5100 F120.00
G01 X-484.7500 Y365.5100 F120.00
G01 X-484.7500 Y365.5700 F120.00
G01 X-485.6500 Y365.5700 F120.00
G01 X-485.6500 Y365.6300 F120.00
G01 X-484.7500 Y365.6300 F120.00
G01 X-484.7500 Y365.6900 F120.00
G01 X-485.6500 Y365.6900 F120.00
G01 X-485.6500 Y365.7500 F120.00
G01 X-484.7500 Y365.7500 F120.00
G01 X-484.7500 Y365.8100 F120.00
G01 X-485.6500 Y365.8100 F120.00
G01 X-485.6500 Y365.8700 F120.00
G01 X-484.7500 Y365.8700 F120.00
G01 X-484.7500 Y365.9300 F120.00
G01 X-485.6500 Y365.9300 F120.00
G01 X-485.6500 Y365.9900 F120.00
G01 X-484.7500 Y365.9900 F120.00
G01 X-484.7500 Y366.0500 F120.00
G01 X-485.6500 Y366.0500 F120.00
G01 X-485.6500 Y366.1100 F120.00
G01 X-484.7500 Y366.1100 F120.00
G01 X-484.7500 Y366.1700 F120.00
G01 X-485.6500 Y366.1700 F120.00
G01 X-485.6500 Y366.2300 F120.00
G01 X-484.7500 Y366.2300 F120.00
G01 X-484.7500 Y366.2900 F120.00
G01 X-485.6500 Y366.2900 F120.00
G01 X-485.6500 Y366.3500 F120.00
G01 X-484.7500 Y366.3500 F120.00
G01 X-484.7500 Y366.4100 F120.00
G01 X-485.6500 Y366.4100 F120.00
G01 X-485.6500 Y366.4700 F120.00
G01 X-484.7500 Y366.4700 F120.00
G01 X-484.7500 Y366.5300 F120.00
G01 X-485.6500 Y366.5300 F120.00
G01 X-485.6500 Y366.5900 F120.00
G01 X-484.7500 Y366.5900 F120.00
G01 X-484.7500 Y366.6500 F120.00
G01 X-485.6500 Y366.6500 F120.00
G01 X-485.6500 Y366.7100 F120.00
G01 X-484.7500 Y366.7100 F120.00
G01 X-484.7500 Y366.7700 F120.00
G01 X-485.6500 Y366.7700 F120.00
G01 X-485.6500 Y366.8300 F120.00
G01 X-484.7500 Y366.8300 F120.00
G01 X-484.7500 Y366.8900 F120.00
G01 X-485.6500 Y366.8900 F120.00
G01 X-485.6500 Y366.9500 F120.00
G01 X-484.7500 Y366.9500 F120.00
G01 X-484.7500 Y367.0100 F120.00
G01 X-485.6500 Y367.0100 F120.00
G01 X-485.6500 Y367.0700 F120.00
G01 X-484.7500 Y367.0700 F120.00
G01 X-484.7500 Y367.1300 F120.00
G01 X-485.6500 Y367.1300 F120.00
G01 X-485.6500 Y367.1900 F120.00
G01 X-484.7500 Y367.1900 F120.00
G01 X-484.7500 Y367.2500 F120.00
G01 X-485.6500 Y367.2500 F120.00
G01 X-485.6500 Y367.3100 F120.00
G01 X-484.7500 Y367.3100 F120.00
G01 X-484.7500 Y367.3700 F120.00
G01 X-485.6500 Y367.3700 F120.00
G01 X-485.6500 Y367.4300 F120.00
G01 X-484.7500 Y367.4300 F120.00
G01 X-484.7500 Y367.4900 F120.00
G01 X-485.6500 Y367.4900 F120.00
G01 X-485.6500 Y367.5500 F120.00
G01 X-484.7500 Y367.5500 F120.00
G01 X-484.7500 Y367.6100 F120.00
G01 X-485.6500 Y367.6100 F120.00
G01 X-485.6500 Y367.6700 F120.00
G01 X-484.7500 Y367.6700 F120.00
G01 X-484.7500 Y367.7300 F120.00
G01 X-485.6500 Y367.7300 F120.00
G01 X-485.6500 Y367.7900 F120.00
G01 X-484.7500 Y367.7900 F120.00
G01 X-484.7500 Y367.8500 F120.00
G01 X-485.6500 Y367.8500 F120.00
G01 X-485.6500 Y367.9100 F120.00
G01 X-484.7500 Y367.9100 F120.00
G01 X-484.7500 Y367.9700 F120.00
G01 X-485.6500 Y367.9700 F120.00
G01 X-485.6500 Y368.0300 F120.00
G01 X-484.7500 Y368.0300 F120.00
G01 X-484.7500 Y368.0900 F120.00
G01 X-485.6500 Y368.0900 F120.00
G01 X-485.6500 Y368.1500 F120.00
G01 X-484.7500 Y368.1500 F120.00
G01 X-484.7500 Y368.2100 F120.00
G01 X-485.6500 Y368.2100 F120.00
G01 X-485.6500 Y368.2700 F120.00
G01 X-484.7500 Y368.2700 F120.00
G01 X-484.7500 Y368.3300 F120.00
G01 X-485.6500 Y368.3300 F120.00
G01 X-485.6500 Y368.3900 F120.00
G01 X-484.7500 Y368.3900 F120.00
G01 X-484.7500 Y368.4500 F120.00
G01 X-485.6500 Y368.4500 F120.00
G01 X-485.6500 Y368.5100 F120.00
G01 X-484.7500 Y368.5100 F120.00
G01 X-484.7500 Y368.5700 F120.00
G01 X-485.6500 Y368.5700 F120.00
G01 X-485.6500 Y368.6300 F120.00
G01 X-484.7500 Y368.6300 F120.00
G01 X-484.7500 Y368.6900 F120.00
G01 X-485.6500 Y368.6900 F120.00
G01 X-485.6500 Y368.7500 F120.00
G01 X-484.7500 Y368.7500 F120.00
G01 X-484.7500 Y368.8100 F120.00
G01 X-485.6500 Y368.8100 F120.00
G01 X-485.6500 Y368.8700 F120.00
G01 X-484.7500 Y368.8700 F120.00
G01 X-484.7500 Y368.9300 F120.00
G01 X-485.6500 Y368.9300 F120.00
G01 X-485.6500 Y368.9900 F120.00
G01 X-484.7500 Y368.9900 F120.00
G01 X-484.7500 Y369.0500 F120.00
G01 X-485.6500 Y369.0500 F120.00
G01 X-485.6500 Y369.1100 F120.00
G01 X-484.7500 Y369.1100 F120.00
G01 X-484.7500 Y369.1700 F120.00
G01 X-485.6500 Y369.1700 F120.00
G01 X-485.6500 Y369.2300 F120.00
G01 X-484.7500 Y369.2300 F120.00
G01 X-484.7500 Y369.2900 F120.00
G01 X-485.6500 Y369.2900 F120.00
G01 X-485.6500 Y369.3500 F120.00
G01 X-484.7500 Y369.3500 F120.00
G01 X-484.7500 Y369.4100 F120.00
G01 X-485.6500 Y369.4100 F120.00
G01 X-485.6500 Y369.4700 F120.00
G01 X-484.7500 Y369.4700 F120.00
G01 X-484.7500 Y369.5300 F120.00
G01 X-485.6500 Y369.5300 F120.00
G01 X-485.6500 Y369.5900 F120.00
G01 X-484.7500 Y369.5900 F120.00
G01 X-484.7500 Y369.6500 F120.00
G01 X-485.6500 Y369.6500 F120.00
G01 X-485.6500 Y369.7100 F120.00
G01 X-484.7500 Y369.7100 F120.00
G01 X-484.7500 Y369.7700 F120.00
G01 X-485.6500 Y369.7700 F120.00
G01 X-485.6500 Y369.8300 F120.00
G01 X-484.7500 Y369.8300 F120.00
G01 X-484.7500 Y369.8900 F120.00
G01 X-485.6500 Y369.8900 F120.00
G01 X-485.6500 Y369.9500 F120.00
G01 X-484.7500 Y369.9500 F120.00
G01 X-484.7500 Y370.0100 F120.00
G01 X-485.6500 Y370.0100 F120.00
G01 X-485.6500 Y370.0700 F120.00
G01 X-484.7500 Y370.0700 F120.00
G01 X-484.7500 Y370.1300 F120.00
G01 X-485.6500 Y370.1300 F120.00
G01 X-485.6500 Y370.1900 F120.00
G01 X-484.7500 Y370.1900 F120.00
G01 X-484.7500 Y370.2500 F120.00
G01 X-485.6500 Y370.2500 F120.00
G01 X-485.6500 Y370.3100 F120.00
G01 X-484.7500 Y370.3100 F120.00
G01 X-484.7500 Y370.3700 F120.00
G01 X-485.6500 Y370.3700 F120.00
G01 X-485.6500 Y370.4300 F120.00
G01 X-484.7500 Y370.4300 F120.00
G01 X-484.7500 Y370.4900 F120.00
G01 X-485.6500 Y370.4900 F120.00
G01 X-485.6500 Y370.5500 F120.00
G01 X-484.7500 Y370.5500 F120.00
G01 X-484.7500 Y370.6100 F120.00
G01 X-485.6500 Y370.6100 F120.00
G01 X-485.6500 Y370.6700 F120.00
G01 X-484.7500 Y370.6700 F120.00
G01 X-484.7500 Y370.7300 F120.00
G01 X-485.6500 Y370.7300 F120.00
G01 X-485.6500 Y370.7900 F120.00
G01 X-484.7500 Y370.7900 F120.00
G01 X-484.7500 Y370.8500 F120.00
G01 X-485.6500 Y370.8500 F120.00
G01 X-485.6500 Y370.9100 F120.00
G01 X-484.7500 Y370.9100 F120.00
G01 X-484.7500 Y370.9700 F120.00
G01 X-485.6500 Y370.9700 F120.00
G01 X-485.6500 Y371.0300 F120.00
G01 X-484.7500 Y371.0300 F120.00
G01 X-484.7500 Y371.0900 F120.00
G01 X-485.6500 Y371.0900 F120.00
G01 X-485.6500 Y371.1500 F120.00
G01 X-484.7500 Y371.1500 F120.00
G01 X-484.7500 Y371.2100 F120.00
G01 X-485.6500 Y371.2100 F120.00
G01 X-485.6500 Y371.2700 F120.00
G01 X-484.7500 Y371.2700 F120.00
G01 X-484.7500 Y371.3300 F120.00
G01 X-485.6500 Y371.3300 F120.00
G01 X-485.6500 Y371.3900 F120.00
G01 X-484.7500 Y371.3900 F120.00
G01 X-484.7500 Y371.4500 F120.00
G01 X-485.6500 Y371.4500 F120.00
G01 X-485.6500 Y371.5100 F120.00
G01 X-484.7500 Y371.5100 F120.00
G01 X-484.7500 Y371.5700 F120.00
G01 X-485.6500 Y371.5700 F120.00
G01 X-485.6500 Y371.6300 F120.00
G01 X-484.7500 Y371.6300 F120.00
G01 X-484.7500 Y371.6900 F120.00
G01 X-485.6500 Y371.6900 F120.00
G01 X-485.6500 Y371.7500 F120.00
G01 X-484.7500 Y371.7500 F120.00
G01 X-484.7500 Y371.8100 F120.00
G01 X-485.6500 Y371.8100 F120.00
G01 X-485.6500 Y371.8700 F120.00
G01 X-484.7500 Y371.8700 F120.00
G01 X-484.7500 Y371.9300 F120.00
G01 X-485.6500 Y371.9300 F120.00
G01 X-485.6500 Y371.9900 F120.00
G01 X-484.7500 Y371.9900 F120.00
G01 X-484.7500 Y372.0500 F120.00
G01 X-485.6500 Y372.0500 F120.00
G01 X-485.6500 Y372.1100 F120.00
G01 X-484.7500 Y372.1100 F120.00
G01 X-484.7500 Y372.1700 F120.00
G01 X-485.6500 Y372.1700 F120.00
G01 X-485.6500 Y372.2300 F120.00
G01 X-484.7500 Y372.2300 F120.00
G01 X-484.7500 Y372.2900 F120.00
G01 X-485.6500 Y372.2900 F120.00
G01 X-485.6500 Y372.3500 F120.00
G01 X-484.7500 Y372.3500 F120.00
G01 X-484.7500 Y372.4100 F120.00
G01 X-485.6500 Y372.4100 F120.00
G01 X-485.6500 Y372.4700 F120.00
G01 X-484.7500 Y372.4700 F120.00
G01 X-484.7500 Y372.5300 F120.00
G01 X-485.6500 Y372.5300 F120.00
G01 X-485.6500 Y372.5900 F120.00
G01 X-484.7500 Y372.5900 F120.00
G01 X-484.7500 Y372.6500 F120.00
G01 X-485.6500 Y372.6500 F120.00
G01 X-485.6500 Y372.7100 F120.00
G01 X-484.7500 Y372.7100 F120.00
G01 X-484.7500 Y372.7700 F120.00
G01 X-485.6500 Y372.7700 F120.00
G01 X-485.6500 Y372.8300 F120.00
G01 X-484.7500 Y372.8300 F120.00
G01 X-484.7500 Y372.8900 F120.00
G01 X-485.6500 Y372.8900 F120.00
G01 X-485.6500 Y372.9500 F120.00
G01 X-484.7500 Y372.9500 F120.00
G01 X-484.7500 Y373.0100 F120.00
G01 X-485.6500 Y373.0100 F120.00
G01 X-485.6500 Y373.0700 F120.00
G01 X-484.7500 Y373.0700 F120.00
G01 X-484.7500 Y373.1300 F120.00
G01 X-485.6500 Y373.1300 F120.00
G01 X-485.6500 Y373.1900 F120.00
G01 X-484.7500 Y373.1900 F120.00
G01 X-484.7500 Y373.2500 F120.00
G01 X-485.6500 Y373.2500 F120.00
G01 X-485.6500 Y373.3100 F120.00
G01 X-484.7500 Y373.3100 F120.00
G01 X-484.7500 Y373.3700 F120.00
G01 X-485.6500 Y373.3700 F120.00
G01 X-485.6500 Y373.4300 F120.00
G01 X-484.7500 Y373.4300 F120.00
G01 X-484.7500 Y373.4900 F120.00
G01 X-485.6500 Y373.4900 F120.00
G01 X-485.6500 Y373.5500 F120.00
G01 X-484.7500 Y373.5500 F120.00
G01 X-484.7500 Y373.6100 F120.00
G01 X-485.6500 Y373.6100 F120.00
G01 X-485.6500 Y373.6700 F120.00
G01 X-484.7500 Y373.6700 F120.00
G01 X-484.7500 Y373.7300 F120.00
G01 X-485.6500 Y373.7300 F120.00
G01 X-485.6500 Y373.7900 F120.00
G01 X-484.7500 Y373.7900 F120.00
G01 X-484.7500 Y373.8500 F120.00
G01 X-485.6500 Y373.8500 F120.00
G01 X-485.6500 Y373.9100 F120.00
G01 X-484.7500 Y373.9100 F120.00
G01 X-484.7500 Y373.9700 F120.00
G01 X-485.6500 Y373.9700 F120.00
G01 X-485.6500 Y374.0300 F120.00
G01 X-484.7500 Y374.0300 F120.00
G01 X-484.7500 Y374.0900 F120.00
G01 X-485.6500 Y374.0900 F120.00
G01 X-485.6500 Y374.1500 F120.00
G01 X-484.7500 Y374.1500 F120.00
G01 X-484.7500 Y374.2100 F120.00
G01 X-485.6500 Y374.2100 F120.00
G01 X-485.6500 Y374.2700 F120.00
G01 X-484.7500 Y374.2700 F120.00
G01 X-484.7500 Y374.3300 F120.00
G01 X-485.6500 Y374.3300 F120.00
G01 X-485.6500 Y374.3900 F120.00
G01 X-484.7500 Y374.3900 F120.00
G01 X-484.7500 Y374.4500 F120.00
G01 X-485.6500 Y374.4500 F120.00
G01 X-485.6500 Y374.5100 F120.00
G01 X-484.7500 Y374.5100 F120.00
G01 X-484.7500 Y374.5700 F120.00
G01 X-485.6500 Y374.5700 F120.00
G01 X-485.6500 Y374.6300 F120.00
G01 X-484.7500 Y374.6300 F120.00
G01 X-484.7500 Y374.6900 F120.00
G01 X-485.6500 Y374.6900 F120.00
G01 X-485.6500 Y374.7500 F120.00
G01 X-484.7500 Y374.7500 F120.00
G01 X-484.7500 Y374.8100 F120.00
G01 X-485.6500 Y374.8100 F120.00
G01 X-485.6500 Y374.8700 F120.00
G01 X-484.7500 Y374.8700 F120.00
G01 X-484.7500 Y374.9300 F120.00
G01 X-485.6500 Y374.9300 F120.00
G01 X-485.6500 Y374.9900 F120.00
G01 X-484.7500 Y374.9900 F120.00
G01 X-484.7500 Y375.0500 F120.00
G01 X-485.6500 Y375.0500 F120.00
G01 X-485.6500 Y375.1100 F120.00
G01 X-484.7500 Y375.1100 F120.00
G01 X-484.7500 Y375.1700 F120.00
G01 X-485.6500 Y375.1700 F120.00
G01 X-485.6500 Y375.2300 F120.00
G01 X-484.7500 Y375.2300 F120.00
G01 X-484.7500 Y375.2900 F120.00
G01 X-485.6500 Y375.2900 F120.00
G01 X-485.6500 Y375.3500 F120.00
G01 X-484.7500 Y375.3500 F120.00
G01 X-484.7500 Y375.4100 F120.00
G01 X-485.6500 Y375.4100 F120.00
G01 X-485.6500 Y375.4700 F120.00
G01 X-484.7500 Y375.4700 F120.00
G01 X-484.7500 Y375.5300 F120.00
G01 X-485.6500 Y375.5300 F120.00
G01 X-485.6500 Y375.5900 F120.00
G01 X-484.7500 Y375.5900 F120.00
G01 X-484.7500 Y375.6500 F120.00
G01 X-485.6500 Y375.6500 F120.00
G01 X-485.6500 Y375.7100 F120.00
G01 X-484.7500 Y375.7100 F120.00
G01 X-484.7500 Y375.7700 F120.00
G01 X-485.6500 Y375.7700 F120.00
G01 X-485.6500 Y375.8300 F120.00
G01 X-484.7500 Y375.8300 F120.00
G01 X-484.7500 Y375.8900 F120.00
G01 X-485.6500 Y375.8900 F120.00
G01 X-485.6500 Y375.9500 F120.00
G01 X-484.7500 Y375.9500 F120.00
G01 X-484.7500 Y376.0100 F120.00
G01 X-485.6500 Y376.0100 F120.00
G01 X-485.6500 Y376.0700 F120.00
G01 X-484.7500 Y376.0700 F120.00
G01 X-484.7500 Y376.1300 F120.00
G01 X-485.6500 Y376.1300 F120.00
G01 X-485.6500 Y376.1900 F120.00
G01 X-484.7500 Y376.1900 F120.00
G01 X-484.7500 Y376.2500 F120.00
G01 X-485.6500 Y376.2500 F120.00
G01 X-485.6500 Y376.3100 F120.00
G01 X-484.7500 Y376.3100 F120.00
G01 X-484.7500 Y376.3700 F120.00
G01 X-485.6500 Y376.3700 F120.00
G01 X-485.6500 Y376.4300 F120.00
G01 X-484.7500 Y376.4300 F120.00
G01 X-484.7500 Y376.4900 F120.00
G01 X-485.6500 Y376.4900 F120.00
G01 X-485.6500 Y376.5500 F120.00
G01 X-484.7500 Y376.5500 F120.00
G01 X-484.7500 Y376.6100 F120.00
G01 X-485.6500 Y376.6100 F120.00
G01 X-485.6500 Y376.6700 F120.00
G01 X-484.7500 Y376.6700 F120.00
G01 X-484.7500 Y376.7300 F120.00
G01 X-485.6500 Y376.7300 F120.00
G01 X-485.6500 Y376.7900 F120.00
G01 X-484.7500 Y376.7900 F120.00
G01 X-484.7500 Y376.8500 F120.00
G01 X-485.6500 Y376.8500 F120.00
G01 X-485.6500 Y376.9100 F120.00
G01 X-484.7500 Y376.9100 F120.00
G01 X-484.7500 Y376.9700 F120.00
G01 X-485.6500 Y376.9700 F120.00
G01 X-485.6500 Y377.0300 F120.00
G01 X-484.7500 Y377.0300 F120.00
G01 X-484.7500 Y377.0900 F120.00
G01 X-485.6500 Y377.0900 F120.00
G01 X-485.6500 Y377.1500 F120.00
G01 X-484.7500 Y377.1500 F120.00
G01 X-484.7500 Y377.2100 F120.00
G01 X-485.6500 Y377.2100 F120.00
G01 X-485.6500 Y377.2700 F120.00
G01 X-484.7500 Y377.2700 F120.00
G01 X-484.7500 Y377.3300 F120.00
G01 X-485.6500 Y377.3300 F120.00
G01 X-485.6500 Y377.3900 F120.00
G01 X-484.7500 Y377.3900 F120.00
G01 X-484.7500 Y377.4500 F120.00
G01 X-485.6500 Y377.4500 F120.00
G01 X-485.6500 Y377.5100 F120.00
G01 X-484.7500 Y377.5100 F120.00
G01 X-484.7500 Y377.5700 F120.00
G01 X-485.6500 Y377.5700 F120.00
G01 X-485.6500 Y377.6300 F120.00
G01 X-484.7500 Y377.6300 F120.00
G01 X-484.7500 Y377.6900 F120.00
G01 X-485.6500 Y377.6900 F120.00
G01 X-485.6500 Y377.7500 F120.00
G01 X-484.7500 Y377.7500 F120.00
G01 X-484.7500 Y377.8100 F120.00
G01 X-485.6500 Y377.8100 F120.00
G01 X-485.6500 Y377.8700 F120.00
G01 X-484.7500 Y377.8700 F120.00
G01 X-484.7500 Y377.9300 F120.00
G01 X-485.6500 Y377.9300 F120.00
G01 X-485.6500 Y377.9900 F120.00
G01 X-484.7500 Y377.9900 F120.00
G01 X-484.7500 Y378.0500 F120.00
G01 X-485.6500 Y378.0500 F120.00
G01 X-485.6500 Y378.1100 F120.00
G01 X-484.7500 Y378.1100 F120.00
G01 X-484.7500 Y378.1700 F120.00
G01 X-485.6500 Y378.1700 F120.00
G01 X-485.6500 Y378.2300 F120.00
G01 X-484.7500 Y378.2300 F120.00
G01 X-484.7500 Y378.2900 F120.00
G01 X-485.6500 Y378.2900 F120.00
G01 X-485.6500 Y378.3500 F120.00
G01 X-484.7500 Y378.3500 F120.00
G01 X-484.7500 Y378.4100 F120.00
G01 X-485.6500 Y378.4100 F120.00
G01 X-485.6500 Y378.4700 F120.00
G01 X-484.7500 Y378.4700 F120.00
G01 X-484.7500 Y378.5300 F120.00
G01 X-485.6500 Y378.5300 F120.00
G01 X-485.6500 Y378.5900 F120.00
G01 X-484.7500 Y378.5900 F120.00
G01 X-484.7500 Y378.6500 F120.00
G01 X-485.6500 Y378.6500 F120.00
G01 X-485.6500 Y378.7100 F120.00
G01 X-484.7500 Y378.7100 F120.00
G01 X-484.7500 Y378.7700 F120.00
G01 X-485.6500 Y378.7700 F120.00
G01 X-485.6500 Y378.8300 F120.00
G01 X-484.7500 Y378.8300 F120.00
G01 X-484.7500 Y378.8900 F120.00
G01 X-485.6500 Y378.8900 F120.00
G01 X-485.6500 Y378.9500 F120.00
G01 X-484.7500 Y378.9500 F120.00
G01 X-484.7500 Y379.0100 F120.00
G01 X-485.6500 Y379.0100 F120.00
G01 X-485.6500 Y379.0700 F120.00
G01 X-484.7500 Y379.0700 F120.00
G01 X-484.7500 Y379.1300 F120.00
G01 X-485.6500 Y379.1300 F120.00
G01 X-485.6500 Y379.1900 F120.00
G01 X-484.7500 Y379.1900 F120.00
G01 X-484.7500 Y379.2500 F120.00
G01 X-485.6500 Y379.2500 F120.00
G01 X-485.6500 Y379.3100 F120.00
G01 X-484.7500 Y379.3100 F120.00
G01 X-484.7500 Y379.3700 F120.00
G01 X-485.6500 Y379.3700 F120.00
G01 X-485.6500 Y379.4300 F120.00
G01 X-484.7500 Y379.4300 F120.00
G01 X-484.7500 Y379.4900 F120.00
G01 X-485.6500 Y379.4900 F120.00
G01 X-485.6500 Y379.5500 F120.00
G01 X-484.7500 Y379.5500 F120.00
G01 X-484.7500 Y379.6100 F120.00
G01 X-485.6500 Y379.6100 F120.00
G01 X-485.6500 Y379.6700 F120.00
G01 X-484.7500 Y379.6700 F120.00
G01 X-484.7500 Y379.7300 F120.00
G01 X-485.6500 Y379.7300 F120.00
G01 X-485.6500 Y379.7900 F120.00
G01 X-484.7500 Y379.7900 F120.00
G01 X-484.7500 Y379.8500 F120.00
G01 X-485.6500 Y379.8500 F120.00
G01 X-485.6500 Y379.9100 F120.00
G01 X-484.7500 Y379.9100 F120.00
G01 X-484.7500 Y379.9700 F120.00
G01 X-485.6500 Y379.9700 F120.00
G01 X-485.6500 Y380.0300 F120.00
G01 X-484.7500 Y380.0300 F120.00
G01 X-484.7500 Y380.0900 F120.00
G01 X-485.6500 Y380.0900 F120.00
G01 X-485.6500 Y380.1500 F120.00
G01 X-484.7500 Y380.1500 F120.00
G01 X-484.7500 Y380.2100 F120.00
G01 X-485.6500 Y380.2100 F120.00
G01 X-485.6500 Y380.2700 F120.00
G01 X-484.7500 Y380.2700 F120.00
G01 X-484.7500 Y380.3300 F120.00
G01 X-485.6500 Y380.3300 F120.00
G01 X-485.6500 Y380.3900 F120.00
G01 X-484.7500 Y380.3900 F120.00
G01 X-484.7500 Y380.4500 F120.00
G01 X-485.6500 Y380.4500 F120.00
G01 X-485.6500 Y380.5100 F120.00
G01 X-484.7500 Y380.5100 F120.00
G01 X-484.7500 Y380.5700 F120.00
G01 X-485.6500 Y380.5700 F120.00
G01 X-485.6500 Y380.6300 F120.00
G01 X-484.7500 Y380.6300 F120.00
G01 X-484.7500 Y380.6900 F120.00
G01 X-485.6500 Y380.6900 F120.00
G01 X-485.6500 Y380.7500 F120.00
G01 X-484.7500 Y380.7500 F120.00
G01 X-484.7500 Y380.8100 F120.00
G01 X-485.6500 Y380.8100 F120.00
G01 X-485.6500 Y380.8700 F120.00
G01 X-484.7500 Y380.8700 F120.00
G01 X-484.7500 Y380.9300 F120.00
G01 X-485.6500 Y380.9300 F120.00
G01 X-485.6500 Y380.9900 F120.00
G01 X-484.7500 Y380.9900 F120.00
G01 X-484.7500 Y381.0500 F120.00
G01 X-485.6500 Y381.0500 F120.00
G01 X-485.6500 Y381.1100 F120.00
G01 X-484.7500 Y381.1100 F120.00
G01 X-484.7500 Y381.1700 F120.00
G01 X-485.6500 Y381.1700 F120.00
G01 X-485.6500 Y381.2300 F120.00
G01 X-484.7500 Y381.2300 F120.00
G01 X-484.7500 Y381.2900 F120.00
G01 X-485.6500 Y381.2900 F120.00
G01 X-485.6500 Y381.3500 F120.00
G01 X-484.7500 Y381.3500 F120.00
G01 X-484.7500 Y381.4100 F120.00
G01 X-485.6500 Y381.4100 F120.00
G01 X-485.6500 Y381.4700 F120.00
G01 X-484.7500 Y381.4700 F120.00
G01 X-484.7500 Y381.5300 F120.00
G01 X-485.6500 Y381.5300 F120.00
G01 X-485.6500 Y381.5900 F120.00
G01 X-484.7500 Y381.5900 F120.00
G01 X-484.7500 Y381.6500 F120.00
G01 X-485.6500 Y381.6500 F120.00
G01 X-485.6500 Y381.7100 F120.00
G01 X-484.7500 Y381.7100 F120.00
G01 X-484.7500 Y381.7700 F120.00
G01 X-485.6500 Y381.7700 F120.00
G01 X-485.6500 Y381.8300 F120.00
G01 X-484.7500 Y381.8300 F120.00
G01 X-484.7500 Y381.8900 F120.00
G01 X-485.6500 Y381.8900 F120.00
G01 X-485.6500 Y381.9500 F120.00
G01 X-484.7500 Y381.9500 F120.00
G01 X-484.7500 Y382.0100 F120.00
G01 X-485.6500 Y382.0100 F120.00
G01 X-485.6500 Y382.0700 F120.00
G01 X-484.7500 Y382.0700 F120.00
G01 X-484.7500 Y382.1300 F120.00
G01 X-485.6500 Y382.1300 F120.00
G01 X-485.6500 Y382.1900 F120.00
G01 X-484.7500 Y382.1900 F120.00
G01 X-484.7500 Y382.2500 F120.00
G01 X-485.6500 Y382.2500 F120.00
G01 X-485.6500 Y382.3100 F120.00
G01 X-484.7500 Y382.3100 F120.00
G01 X-484.7500 Y382.3700 F120.00
G01 X-485.6500 Y382.3700 F120.00
G01 X-485.6500 Y382.4300 F120.00
G01 X-484.7500 Y382.4300 F120.00
G01 X-484.7500 Y382.4900 F120.00
G01 X-485.6500 Y382.4900 F120.00
G01 X-485.6500 Y382.5500 F120.00
G01 X-484.7500 Y382.5500 F120.00
G01 X-484.7500 Y382.6100 F120.00
G01 X-485.6500 Y382.6100 F120.00
G01 X-485.6500 Y382.6700 F120.00
G01 X-484.7500 Y382.6700 F120.00
G01 X-484.7500 Y382.7300 F120.00
G01 X-485.6500 Y382.7300 F120.00
G01 X-485.6500 Y382.7900 F120.00
G01 X-484.7500 Y382.7900 F120.00
G01 X-484.7500 Y382.8500 F120.00
G01 X-485.6500 Y382.8500 F120.00
G01 X-485.6500 Y382.9100 F120.00
G01 X-484.7500 Y382.9100 F120.00
G01 X-484.7500 Y382.9700 F120.00
G01 X-485.6500 Y382.9700 F120.00
G01 X-485.6500 Y383.0300 F120.00
G01 X-484.7500 Y383.0300 F120.00
G01 X-484.7500 Y383.0900 F120.00
G01 X-485.6500 Y383.0900 F120.00
G01 X-485.6500 Y383.1500 F120.00
G01 X-484.7500 Y383.1500 F120.00
G01 X-484.7500 Y383.2100 F120.00
G01 X-485.6500 Y383.2100 F120.00
G01 X-485.6500 Y383.2700 F120.00
G01 X-484.7500 Y383.2700 F120.00
G01 X-484.7500 Y383.3300 F120.00
G01 X-485.6500 Y383.3300 F120.00
G01 X-485.6500 Y383.3900 F120.00
G01 X-484.7500 Y383.3900 F120.00
G01 X-484.7500 Y383.4500 F120.00
G01 X-485.6500 Y383.4500 F120.00
G01 X-485.6500 Y383.5100 F120.00
G01 X-484.7500 Y383.5100 F120.00
G01 X-484.7500 Y383.5700 F120.00
G01 X-485.6500 Y383.5700 F120.00
G01 X-485.6500 Y383.6300 F120.00
G01 X-484.7500 Y383.6300 F120.00
G01 X-484.7500 Y383.6900 F120.00
G01 X-485.6500 Y383.6900 F120.00
G01 X-485.6500 Y383.7500 F120.00
G01 X-484.7500 Y383.7500 F120.00
G01 X-484.7500 Y383.8100 F120.00
G01 X-485.6500 Y383.8100 F120.00
G01 X-485.6500 Y383.8700 F120.00
G01 X-484.7500 Y383.8700 F120.00
G01 X-484.7500 Y383.9300 F120.00
G01 X-485.6500 Y383.9300 F120.00
G01 X-485.6500 Y383.9900 F120.00
G01 X-484.7500 Y383.9900 F120.00
G01 X-484.7500 Y384.0500 F120.00
G01 X-485.6500 Y384.0500 F120.00
G01 X-485.6500 Y384.1100 F120.00
G01 X-484.7500 Y384.1100 F120.00
G01 X-484.7500 Y384.1700 F120.00
G01 X-485.6500 Y384.1700 F120.00
G01 X-485.6500 Y384.2300 F120.00
G01 X-484.7500 Y384.2300 F120.00
G01 X-484.7500 Y384.2900 F120.00
G01 X-485.6500 Y384.2900 F120.00
G01 X-485.6500 Y384.3500 F120.00
G01 X-484.7500 Y384.3500 F120.00
G01 X-484.7500 Y384.4100 F120.00
G01 X-485.6500 Y384.4100 F120.00
G01 X-485.6500 Y384.4700 F120.00
G01 X-484.7500 Y384.4700 F120.00
G01 X-484.7500 Y384.5300 F120.00
G01 X-485.6500 Y384.5300 F120.00
G01 X-485.6500 Y384.5900 F120.00
G01 X-484.7500 Y384.5900 F120.00
G01 X-484.7500 Y384.6500 F120.00
G01 X-485.6500 Y384.6500 F120.00
G01 X-485.6500 Y384.7100 F120.00
G01 X-484.7500 Y384.7100 F120.00
G01 X-484.7500 Y384.7700 F120.00
G01 X-485.6500 Y384.7700 F120.00
G01 X-485.6500 Y384.8300 F120.00
G01 X-484.7500 Y384.8300 F120.00
G01 X-484.7500 Y384.8900 F120.00
G01 X-485.6500 Y384.8900 F120.00
G01 X-485.6500 Y384.9500 F120.00
G01 X-484.7500 Y384.9500 F120.00
G01 X-484.7500 Y385.0100 F120.00
G01 X-485.6500 Y385.0100 F120.00
G01 X-485.6500 Y385.0700 F120.00
G01 X-484.7500 Y385.0700 F120.00
G01 X-484.7500 Y385.1300 F120.00
G01 X-485.6500 Y385.1300 F120.00
G01 X-485.6500 Y385.1900 F120.00
G01 X-484.7500 Y385.1900 F120.00
G01 X-484.7500 Y385.2500 F120.00
G01 X-485.6500 Y385.2500 F120.00
G01 X-485.6500 Y385.3100 F120.00
G01 X-484.7500 Y385.3100 F120.00
G01 X-484.7500 Y385.3700 F120.00
G01 X-485.6500 Y385.3700 F120.00
G01 X-485.6500 Y385.4300 F120.00
G01 X-484.7500 Y385.4300 F120.00
G01 X-484.7500 Y385.4900 F120.00
G01 X-485.6500 Y385.4900 F120.00
G01 X-485.6500 Y385.5500 F120.00
G01 X-484.7500 Y385.5500 F120.00
G01 X-484.7500 Y385.6100 F120.00
G01 X-485.6500 Y385.6100 F120.00
G01 X-485.6500 Y385.6700 F120.00
G01 X-484.7500 Y385.6700 F120.00
G01 X-484.7500 Y385.7300 F120.00
G01 X-485.6500 Y385.7300 F120.00
G01 X-485.6500 Y385.7900 F120.00
G01 X-484.7500 Y385.7900 F120.00
G01 X-484.7500 Y385.8500 F120.00
G01 X-485.6500 Y385.8500 F120.00
G01 X-485.6500 Y385.9100 F120.00
G01 X-484.7500 Y385.9100 F120.00
G01 X-484.7500 Y385.9700 F120.00
G01 X-485.6500 Y385.9700 F120.00
G01 X-485.6500 Y386.0300 F120.00
G01 X-484.7500 Y386.0300 F120.00
G01 X-484.7500 Y386.0900 F120.00
G01 X-485.6500 Y386.0900 F120.00
G01 X-485.6500 Y386.1500 F120.00
G01 X-484.7500 Y386.1500 F120.00
G01 X-484.7500 Y386.2100 F120.00
G01 X-485.6500 Y386.2100 F120.00
G01 X-485.6500 Y386.2700 F120.00
G01 X-484.7500 Y386.2700 F120.00
G01 X-484.7500 Y386.3300 F120.00
G01 X-485.6500 Y386.3300 F120.00
G01 X-485.6500 Y386.3900 F120.00
G01 X-484.7500 Y386.3900 F120.00
G01 X-484.7500 Y386.4500 F120.00
G01 X-485.6500 Y386.4500 F120.00
G01 X-485.6500 Y386.5100 F120.00
G01 X-484.7500 Y386.5100 F120.00
G01 X-484.7500 Y386.5700 F120.00
G01 X-485.6500 Y386.5700 F120.00
G01 X-485.6500 Y386.6300 F120.00
G01 X-484.7500 Y386.6300 F120.00
G01 X-484.7500 Y386.6900 F120.00
G01 X-485.6500 Y386.6900 F120.00
G01 X-485.6500 Y386.7500 F120.00
G01 X-484.7500 Y386.7500 F120.00
G01 X-484.7500 Y386.8100 F120.00
G01 X-485.6500 Y386.8100 F120.00
G01 X-485.6500 Y386.8700 F120.00
G01 X-484.7500 Y386.8700 F120.00
G01 X-484.7500 Y386.9300 F120.00
G01 X-485.6500 Y386.9300 F120.00
G01 X-485.6500 Y386.9900 F120.00
G01 X-484.7500 Y386.9900 F120.00
G01 X-484.7500 Y387.0500 F120.00
G01 X-485.6500 Y387.0500 F120.00
G01 X-485.6500 Y387.1100 F120.00
G01 X-484.7500 Y387.1100 F120.00
G01 X-484.7500 Y387.1700 F120.00
G01 X-485.6500 Y387.1700 F120.00
G01 X-485.6500 Y387.2300 F120.00
G01 X-484.7500 Y387.2300 F120.00
G01 X-484.7500 Y387.2900 F120.00
G01 X-485.6500 Y387.2900 F120.00
G01 X-485.6500 Y387.3500 F120.00
G01 X-484.7500 Y387.3500 F120.00
G01 X-484.7500 Y387.4100 F120.00
G01 X-485.6500 Y387.4100 F120.00
G01 X-485.6500 Y387.4700 F120.00
G01 X-484.7500 Y387.4700 F120.00
G01 X-484.7500 Y387.5300 F120.00
G01 X-485.6500 Y387.5300 F120.00
G01 X-485.6500 Y387.5900 F120.00
G01 X-484.7500 Y387.5900 F120.00
G01 X-484.7500 Y387.6500 F120.00
G01 X-485.6500 Y387.6500 F120.00
G01 X-485.6500 Y387.7100 F120.00
G01 X-484.7500 Y387.7100 F120.00
G01 X-484.7500 Y387.7700 F120.00
G01 X-485.6500 Y387.7700 F120.00
G01 X-485.6500 Y387.8300 F120.00
G01 X-484.7500 Y387.8300 F120.00
G01 X-484.7500 Y387.8900 F120.00
G01 X-485.6500 Y387.8900 F120.00
G01 X-485.6500 Y387.9500 F120.00
G01 X-484.7500 Y387.9500 F120.00
G01 X-484.7500 Y388.0100 F120.00
G01 X-485.6500 Y388.0100 F120.00
G01 X-485.6500 Y388.0700 F120.00
G01 X-484.7500 Y388.0700 F120.00
G01 X-484.7500 Y388.1300 F120.00
G01 X-485.6500 Y388.1300 F120.00
G01 X-485.6500 Y388.1900 F120.00
G01 X-484.7500 Y388.1900 F120.00
G01 X-484.7500 Y388.2500 F120.00
G01 X-485.6500 Y388.2500 F120.00
G01 X-485.6500 Y388.3100 F120.00
G01 X-484.7500 Y388.3100 F120.00
G01 X-484.7500 Y388.3700 F120.00
G01 X-485.6500 Y388.3700 F120.00
G01 X-485.6500 Y388.4300 F120.00
G01 X-484.7500 Y388.4300 F120.00
G01 X-484.7500 Y388.4900 F120.00
G01 X-485.6500 Y388.4900 F120.00
G01 X-485.6500 Y388.5500 F120.00
G01 X-484.7500 Y388.5500 F120.00
G01 X-484.7500 Y388.6100 F120.00
G01 X-485.6500 Y388.6100 F120.00
G01 X-485.6500 Y388.6700 F120.00
G01 X-484.7500 Y388.6700 F120.00
G01 X-484.7500 Y388.7300 F120.00
G01 X-485.6500 Y388.7300 F120.00
G01 X-485.6500 Y388.7900 F120.00
G01 X-484.7500 Y388.7900 F120.00
G01 X-484.7500 Y388.8500 F120.00
G01 X-485.6500 Y388.8500 F120.00
G01 X-485.6500 Y388.9100 F120.00
G01 X-484.7500 Y388.9100 F120.00
G01 X-484.7500 Y388.9700 F120.00
G01 X-485.6500 Y388.9700 F120.00
G01 X-485.6500 Y389.0300 F120.00
G01 X-484.7500 Y389.0300 F120.00
G01 X-484.7500 Y389.0900 F120.00
G01 X-485.6500 Y389.0900 F120.00
G01 X-485.6500 Y389.1500 F120.00
G01 X-484.7500 Y389.1500 F120.00
G01 X-484.7500 Y389.2100 F120.00
G01 X-485.6500 Y389.2100 F120.00
G01 X-485.6500 Y389.2700 F120.00
G01 X-484.7500 Y389.2700 F120.00
G01 X-484.7500 Y389.3300 F120.00
G01 X-485.6500 Y389.3300 F120.00
G01 X-485.6500 Y389.3900 F120.00
G01 X-484.7500 Y389.3900 F120.00
G01 X-484.7500 Y389.4500 F120.00
G01 X-485.6500 Y389.4500 F120.00
G01 X-485.6500 Y389.5100 F120.00
G01 X-484.7500 Y389.5100 F120.00
G01 X-484.7500 Y389.5700 F120.00
G01 X-485.6500 Y389.5700 F120.00
G01 X-485.6500 Y389.6300 F120.00
G01 X-484.7500 Y389.6300 F120.00
G01 X-484.7500 Y389.6900 F120.00
G01 X-485.6500 Y389.6900 F120.00
G01 X-485.6500 Y389.7500 F120.00
G01 X-484.7500 Y389.7500 F120.00
G01 X-484.7500 Y389.8100 F120.00
G01 X-485.6500 Y389.8100 F120.00
G01 X-485.6500 Y389.8700 F120.00
G01 X-484.7500 Y389.8700 F120.00
G01 X-484.7500 Y389.9300 F120.00
G01 X-485.6500 Y389.9300 F120.00
G01 X-485.6500 Y389.9900 F120.00
G01 X-484.7500 Y389.9900 F120.00
G01 X-484.7500 Y390.0500 F120.00
G01 X-485.6500 Y390.0500 F120.00
G01 X-485.6500 Y390.1100 F120.00
G01 X-484.7500 Y390.1100 F120.00
G01 X-484.7500 Y390.1700 F120.00
G01 X-485.6500 Y390.1700 F120.00
G01 X-485.6500 Y390.2300 F120.00
G01 X-484.7500 Y390.2300 F120.00
G01 X-484.7500 Y390.2900 F120.00
G01 X-485.6500 Y390.2900 F120.00
G01 X-485.6500 Y390.3500 F120.00
G01 X-484.7500 Y390.3500 F120.00
G01 X-484.7500 Y390.4100 F120.00
G01 X-485.6500 Y390.4100 F120.00
G01 X-485.6500 Y390.4700 F120.00
G01 X-484.7500 Y390.4700 F120.00
G01 X-484.7500 Y390.5300 F120.00
G01 X-485.6500 Y390.5300 F120.00
G01 X-485.6500 Y390.5900 F120.00
G01 X-484.7500 Y390.5900 F120.00
G01 X-484.7500 Y390.6500 F120.00
G01 X-485.6500 Y390.6500 F120.00
G01 X-485.6500 Y390.7100 F120.00
G01 X-484.7500 Y390.7100 F120.00
G01 X-484.7500 Y390.7700 F120.00
G01 X-485.6500 Y390.7700 F120.00
G01 X-485.6500 Y390.8300 F120.00
G01 X-484.7500 Y390.8300 F120.00
G01 X-484.7500 Y390.8900 F120.00
G01 X-485.6500 Y390.8900 F120.00
G01 X-485.6500 Y390.9500 F120.00
G01 X-484.7500 Y390.9500 F120.00
G01 X-484.7500 Y391.0100 F120.00
G01 X-485.6500 Y391.0100 F120.00
G01 X-485.6500 Y391.0700 F120.00
G01 X-484.7500 Y391.0700 F120.00
G01 X-484.7500 Y391.1300 F120.00
G01 X-485.6500 Y391.1300 F120.00
G01 X-485.6500 Y391.1900 F120.00
G01 X-484.7500 Y391.1900 F120.00
G01 X-484.7500 Y391.2500 F120.00
G01 X-485.6500 Y391.2500 F120.00
G01 X-485.6500 Y391.3100 F120.00
G01 X-484.7500 Y391.3100 F120.00
G01 X-484.7500 Y391.3700 F120.00
G01 X-485.6500 Y391.3700 F120.00
G01 X-485.6500 Y391.4300 F120.00
G01 X-484.7500 Y391.4300 F120.00
G01 X-484.7500 Y391.4900 F120.00
G01 X-485.6500 Y391.4900 F120.00
G01 X-485.6500 Y391.5500 F120.00
G01 X-484.7500 Y391.5500 F120.00
G01 X-484.7500 Y391.6100 F120.00
G01 X-485.6500 Y391.6100 F120.00
G01 X-485.6500 Y391.6700 F120.00
G01 X-484.7500 Y391.6700 F120.00
G01 X-484.7500 Y391.7300 F120.00
G01 X-485.6500 Y391.7300 F120.00
G01 X-485.6500 Y391.7900 F120.00
G01 X-484.7500 Y391.7900 F120.00
G01 X-484.7500 Y391.8500 F120.00
G01 X-485.6500 Y391.8500 F120.00
G01 X-485.6500 Y391.9100 F120.00
G01 X-484.7500 Y391.9100 F120.00
G01 X-484.7500 Y391.9700 F120.00
G01 X-485.6500 Y391.9700 F120.00
G01 X-485.6500 Y392.0300 F120.00
G01 X-484.7500 Y392.0300 F120.00
G01 X-484.7500 Y392.0900 F120.00
G01 X-485.6500 Y392.0900 F120.00
G01 X-485.6500 Y392.1500 F120.00
G01 X-484.7500 Y392.1500 F120.00
G01 X-484.7500 Y392.2100 F120.00
G01 X-485.6500 Y392.2100 F120.00
G01 X-485.6500 Y392.2700 F120.00
G01 X-484.7500 Y392.2700 F120.00
G01 X-484.7500 Y392.3300 F120.00
G01 X-485.6500 Y392.3300 F120.00
G01 X-485.6500 Y392.3900 F120.00
G01 X-484.7500 Y392.3900 F120.00
G01 X-484.7500 Y392.4500 F120.00
G01 X-485.6500 Y392.4500 F120.00
G01 X-485.6500 Y392.5100 F120.00
G01 X-484.7500 Y392.5100 F120.00
G01 X-484.7500 Y392.5700 F120.00
G01 X-485.6500 Y392.5700 F120.00
G01 X-485.6500 Y392.6300 F120.00
G01 X-484.7500 Y392.6300 F120.00
G01 X-484.7500 Y392.6900 F120.00
G01 X-485.6500 Y392.6900 F120.00
G01 X-485.6500 Y392.7500 F120.00
G01 X-484.7500 Y392.7500 F120.00
G01 X-484.7500 Y392.8100 F120.00
G01 X-485.6500 Y392.8100 F120.00
G01 X-485.6500 Y392.8700 F120.00
G01 X-484.7500 Y392.8700 F120.00
G01 X-484.7500 Y392.9300 F120.00
G01 X-485.6500 Y392.9300 F120.00
G01 X-485.6500 Y392.9900 F120.00
G01 X-484.7500 Y392.9900 F120.00
G01 X-484.7500 Y393.0500 F120.00
G01 X-485.6500 Y393.0500 F120.00
G01 X-485.6500 Y393.1100 F120.00
G01 X-484.7500 Y393.1100 F120.00
G01 X-484.7500 Y393.1700 F120.00
G01 X-485.6500 Y393.1700 F120.00
G01 X-485.6500 Y393.2300 F120.00
G01 X-484.7500 Y393.2300 F120.00
G01 X-484.7500 Y393.2900 F120.00
G01 X-485.6500 Y393.2900 F120.00
G01 X-485.6500 Y393.3500 F120.00
G01 X-484.7500 Y393.3500 F120.00
G01 X-484.7500 Y393.4100 F120.00
G01 X-485.6500 Y393.4100 F120.00
G01 X-485.6500 Y393.4700 F120.00
G01 X-484.7500 Y393.4700 F120.00
G01 X-484.7500 Y393.5300 F120.00
G01 X-485.6500 Y393.5300 F120.00
G01 X-485.6500 Y393.5900 F120.00
G01 X-484.7500 Y393.5900 F120.00
G01 X-484.7500 Y393.6500 F120.00
G01 X-485.6500 Y393.6500 F120.00
G01 X-485.6500 Y393.7100 F120.00
G01 X-484.7500 Y393.7100 F120.00
G01 X-484.7500 Y393.7700 F120.00
G01 X-485.6500 Y393.7700 F120.00
G01 X-485.6500 Y393.8300 F120.00
G01 X-484.7500 Y393.8300 F120.00
G01 X-484.7500 Y393.8900 F120.00
G01 X-485.6500 Y393.8900 F120.00
G01 X-485.6500 Y393.9500 F120.00
G01 X-484.7500 Y393.9500 F120.00
G01 X-484.7500 Y394.0100 F120.00
G01 X-485.6500 Y394.0100 F120.00
G01 X-485.6500 Y394.0700 F120.00
G01 X-484.7500 Y394.0700 F120.00
G01 X-484.7500 Y394.1300 F120.00
G01 X-485.6500 Y394.1300 F120.00
G01 X-485.6500 Y394.1900 F120.00
G01 X-484.7500 Y394.1900 F120.00
G01 X-484.7500 Y394.2500 F120.00
G01 X-485.6500 Y394.2500 F120.00
G01 X-485.6500 Y394.3100 F120.00
G01 X-484.7500 Y394.3100 F120.00
G01 X-484.7500 Y394.3700 F120.00
G01 X-485.6500 Y394.3700 F120.00
G01 X-485.6500 Y394.4300 F120.00
G01 X-484.7500 Y394.4300 F120.00
G01 X-484.7500 Y394.4900 F120.00
G01 X-485.6500 Y394.4900 F120.00
G01 X-485.6500 Y394.5500 F120.00
G01 X-484.7500 Y394.5500 F120.00
G01 X-484.7500 Y394.6100 F120.00
G01 X-485.6500 Y394.6100 F120.00
G01 X-485.6500 Y394.6700 F120.00
G01 X-484.7500 Y394.6700 F120.00
G01 X-484.7500 Y394.7300 F120.00
G01 X-485.6500 Y394.7300 F120.00
G01 X-485.6500 Y394.7900 F120.00
G01 X-484.7500 Y394.7900 F120.00
G01 X-484.7500 Y394.8500 F120.00
G01 X-485.6500 Y394.8500 F120.00
G01 X-485.6500 Y394.9100 F120.00
G01 X-484.7500 Y394.9100 F120.00
G01 X-484.7500 Y394.9700 F120.00
G01 X-485.6500 Y394.9700 F120.00
G01 X-485.6500 Y395.0300 F120.00
G01 X-484.7500 Y395.0300 F120.00
G01 X-484.7500 Y395.0900 F120.00
G01 X-485.6500 Y395.0900 F120.00
G01 X-485.6500 Y395.1500 F120.00
G01 X-484.7500 Y395.1500 F120.00
G01 X-484.7500 Y395.2100 F120.00
G01 X-485.6500 Y395.2100 F120.00
G01 X-485.6500 Y395.2700 F120.00
G01 X-484.7500 Y395.2700 F120.00
G01 X-484.7500 Y395.3300 F120.00
G01 X-485.6500 Y395.3300 F120.00
G01 X-485.6500 Y395.3900 F120.00
G01 X-484.7500 Y395.3900 F120.00
G01 X-484.7500 Y395.4500 F120.00
G01 X-485.6500 Y395.4500 F120.00
G01 X-485.6500 Y395.5100 F120.00
G01 X-484.7500 Y395.5100 F120.00
G01 X-484.7500 Y395.5700 F120.00
G01 X-485.6500 Y395.5700 F120.00
G01 X-485.6500 Y395.6300 F120.00
G01 X-484.7500 Y395.6300 F120.00
G01 X-484.7500 Y395.6900 F120.00
G01 X-485.6500 Y395.6900 F120.00
G01 X-485.6500 Y395.7500 F120.00
G01 X-484.7500 Y395.7500 F120.00
G01 X-484.7500 Y395.8100 F120.00
G01 X-485.6500 Y395.8100 F120.00
G01 X-485.6500 Y395.8700 F120.00
G01 X-484.7500 Y395.8700 F120.00
G01 X-484.7500 Y395.9300 F120.00
G01 X-485.6500 Y395.9300 F120.00
G01 X-485.6500 Y395.9900 F120.00
G01 X-484.7500 Y395.9900 F120.00
G01 X-484.7500 Y396.0500 F120.00
G01 X-485.6500 Y396.0500 F120.00
G01 X-485.6500 Y396.1100 F120.00
G01 X-484.7500 Y396.1100 F120.00
G01 X-484.7500 Y396.1700 F120.00
G01 X-485.6500 Y396.1700 F120.00
G01 X-485.6500 Y396.2300 F120.00
G01 X-484.7500 Y396.2300 F120.00
G01 X-484.7500 Y396.2900 F120.00
G01 X-485.6500 Y396.2900 F120.00
G01 X-485.6500 Y396.3500 F120.00
G01 X-484.7500 Y396.3500 F120.00
G01 X-484.7500 Y396.4100 F120.00
G01 X-485.6500 Y396.4100 F120.00
G01 X-485.6500 Y396.4700 F120.00
G01 X-484.7500 Y396.4700 F120.00
G01 X-484.7500 Y396.5300 F120.00
G01 X-485.6500 Y396.5300 F120.00
G01 X-485.6500 Y396.5900 F120.00
G01 X-484.7500 Y396.5900 F120.00
G01 X-484.7500 Y396.6500 F120.00
G01 X-485.6500 Y396.6500 F120.00
G01 X-485.6500 Y396.7100 F120.00
G01 X-484.7500 Y396.7100 F120.00
G01 X-484.7500 Y396.7700 F120.00
G01 X-485.6500 Y396.7700 F120.00
G01 X-485.6500 Y396.8300 F120.00
G01 X-484.7500 Y396.8300 F120.00
G01 X-484.7500 Y396.8900 F120.00
G01 X-485.6500 Y396.8900 F120.00
G01 X-485.6500 Y396.9500 F120.00
G01 X-484.7500 Y396.9500 F120.00
G01 X-484.7500 Y397.0100 F120.00
G01 X-485.6500 Y397.0100 F120.00
G01 X-485.6500 Y397.0700 F120.00
G01 X-484.7500 Y397.0700 F120.00
G01 X-484.7500 Y397.1300 F120.00
G01 X-485.6500 Y397.1300 F120.00
G01 X-485.6500 Y397.1900 F120.00
G01 X-484.7500 Y397.1900 F120.00
G01 X-484.7500 Y397.2500 F120.00
G01 X-485.6500 Y397.2500 F120.00
G01 X-485.6500 Y397.3100 F120.00
G01 X-484.7500 Y397.3100 F120.00
G01 X-484.7500 Y397.3700 F120.00
G01 X-485.6500 Y397.3700 F120.00
G01 X-485.6500 Y397.4300 F120.00
G01 X-484.7500 Y397.4300 F120.00
G01 X-484.7500 Y397.4900 F120.00
G01 X-485.6500 Y397.4900 F120.00
G01 X-485.6500 Y397.5500 F120.00
G01 X-484.7500 Y397.5500 F120.00
G01 X-484.7500 Y397.6100 F120.00
G01 X-485.6500 Y397.6100 F120.00
G01 X-485.6500 Y397.6700 F120.00
G01 X-484.7500 Y397.6700 F120.00
G01 X-484.7500 Y397.7300 F120.00
G01 X-485.6500 Y397.7300 F120.00
G01 X-485.6500 Y397.7900 F120.00
G01 X-484.7500 Y397.7900 F120.00
G01 X-484.7500 Y397.8500 F120.00
G01 X-485.6500 Y397.8500 F120.00
G01 X-485.6500 Y397.9100 F120.00
G01 X-484.7500 Y397.9100 F120.00
G01 X-484.7500 Y397.9700 F120.00
G01 X-485.6500 Y397.9700 F120.00
G01 X-485.6500 Y398.0300 F120.00
G01 X-484.7500 Y398.0300 F120.00
G01 X-484.7500 Y398.0900 F120.00
G01 X-485.6500 Y398.0900 F120.00
G01 X-485.6500 Y398.1500 F120.00
G01 X-484.7500 Y398.1500 F120.00
G01 X-484.7500 Y398.2100 F120.00
G01 X-485.6500 Y398.2100 F120.00
G01 X-485.6500 Y398.2700 F120.00
G01 X-484.7500 Y398.2700 F120.00
G01 X-484.7500 Y398.3300 F120.00
G01 X-485.6500 Y398.3300 F120.00
G01 X-485.6500 Y398.3900 F120.00
G01 X-484.7500 Y398.3900 F120.00
G01 X-484.7500 Y398.4500 F120.00
G01 X-485.6500 Y398.4500 F120.00
G01 X-485.6500 Y398.5100 F120.00
G01 X-484.7500 Y398.5100 F120.00
G01 X-484.7500 Y398.5700 F120.00
G01 X-485.6500 Y398.5700 F120.00
G01 X-485.6500 Y398.6300 F120.00
G01 X-484.7500 Y398.6300 F120.00
G01 X-484.7500 Y398.6900 F120.00
G01 X-485.6500 Y398.6900 F120.00
G01 X-485.6500 Y398.7500 F120.00
G01 X-484.7500 Y398.7500 F120.00
G01 X-484.7500 Y398.8100 F120.00
G01 X-485.6500 Y398.8100 F120.00
G01 X-485.6500 Y398.8700 F120.00
G01 X-484.7500 Y398.8700 F120.00
G01 X-484.7500 Y398.9300 F120.00
G01 X-485.6500 Y398.9300 F120.00
G01 X-485.6500 Y398.9900 F120.00
G01 X-484.7500 Y398.9900 F120.00
G01 X-484.7500 Y399.0500 F120.00
G01 X-485.6500 Y399.0500 F120.00
G01 X-485.6500 Y399.1100 F120.00
G01 X-484.7500 Y399.1100 F120.00
G01 X-484.7500 Y399.1700 F120.00
G01 X-485.6500 Y399.1700 F120.00
G01 X-485.6500 Y399.2300 F120.00
G01 X-484.7500 Y399.2300 F120.00
G01 X-484.7500 Y399.2900 F120.00
G01 X-485.6500 Y399.2900 F120.00
M5
G00 X-485.7000 Y399.3500
G01 F60.00
M03
G01 F120.00
G01 X-484.7500 Y399.3500 F120.00
G01 X-484.7500 Y399.4100 F120.00
G01 X-550.2500 Y399.4100 F120.00
G01 X-550.2500 Y399.3500 F120.00
G01 X-549.3000 Y399.3500 F120.00
G01 X-549.3098 Y399.3490 F120.00
G01 X-549.3191 Y399.3462 F120.00
G01 X-549.3278 Y399.3416 F120.00
G01 X-549.3354 Y399.3354 F120.00
G01 X-549.3416 Y399.3278 F120.00
G01 X-549.3462 Y399.3191 F120.00
G01 X-549.3490 Y399.3098 F120.00
G01 X-549.3500 Y399.3000 F120.00
G01 X-549.3500 Y360.1798 F120.00
G01 X-549.3490 Y360.1700 F120.00
G01 X-549.3462 Y360.1607 F120.00
G01 X-549.3416 Y360.1520 F120.00
G01 X-549.3354 Y360.1444 F120.00
G01 X-549.3278 Y360.1382 F120.00
G01 X-549.3191 Y360.1336 F120.00
G01 X-549.3098 Y360.1308 F120.00
G01 X-549.3000 Y360.1298 F120.00
G01 X-485.7000 Y360.1298 F120.00
G01 X-485.6902 Y360.1308 F120.00
G01 X-485.6809 Y360.1336 F120.00
G01 X-485.6722 Y360.1382 F120.00
G01 X-485.6646 Y360.1444 F120.00
G01 X-485.6584 Y360.1520 F120.00
G01 X-485.6538 Y360.1607 F120.00
G01 X-485.6510 Y360.1700 F120.00
G01 X-485.6500 Y360.1798 F120.00
G01 X-485.6500 Y399.3000 F120.00
G01 X-485.6504 Y399.3061 F120.00
G01 X-485.6515 Y399.3121 F120.00
G01 X-485.6538 Y399.3191 F120.00
G01 X-485.6565 Y399.3246 F120.00
G01 X-485.6598 Y399.3298 F120.00
G01 X-485.6638 Y399.3345 F120.00
G01 X-485.6683 Y399.3387 F120.00
G01 X-485.6743 Y399.3429 F120.00
G01 X-485.6797 Y399.3457 F120.00
G01 X-485.6867 Y399.3482 F120.00
G01 X-485.6927 Y399.3495 F120.00
G01 X-485.7000 Y399.3500 F120.00
G01 X-549.3000 Y399.3500 F120.00
M5
G00 X-549.3500 Y399.2900
G01 F60.00
M03
G01 F120.00
G01 X-550.2500 Y399.2900 F120.00
G01 X-550.2500 Y399.2300 F120.00
G01 X-549.3500 Y399.2300 F120.00
G01 X-549.3500 Y399.1700 F120.00
G01 X-550.2500 Y399.1700 F120.00
G01 X-550.2500 Y399.1100 F120.00
G01 X-549.3500 Y399.1100 F120.00
G01 X-549.3500 Y399.0500 F120.00
G01 X-550.2500 Y399.0500 F120.00
G01 X-550.2500 Y398.9900 F120.00
G01 X-549.3500 Y398.9900 F120.00
G01 X-549.3500 Y398.9300 F120.00
G01 X-550.2500 Y398.9300 F120.00
G01 X-550.2500 Y398.8700 F120.00
G01 X-549.3500 Y398.8700 F120.00
G01 X-549.3500 Y398.8100 F120.00
G01 X-550.2500 Y398.8100 F120.00
G01 X-550.2500 Y398.7500 F120.00
G01 X-549.3500 Y398.7500 F120.00
G01 X-549.3500 Y398.6900 F120.00
G01 X-550.2500 Y398.6900 F120.00
G01 X-550.2500 Y398.6300 F120.00
G01 X-549.3500 Y398.6300 F120.00
G01 X-549.3500 Y398.5700 F120.00
G01 X-550.2500 Y398.5700 F120.00
G01 X-550.2500 Y398.5100 F120.00
G01 X-549.3500 Y398.5100 F120.00
G01 X-549.3500 Y398.4500 F120.00
G01 X-550.2500 Y398.4500 F120.00
G01 X-550.2500 Y398.3900 F120.00
G01 X-549.3500 Y398.3900 F120.00
G01 X-549.3500 Y398.3300 F120.00
G01 X-550.2500 Y398.3300 F120.00
G01 X-550.2500 Y398.2700 F120.00
G01 X-549.3500 Y398.2700 F120.00
G01 X-549.3500 Y398.2100 F120.00
G01 X-550.2500 Y398.2100 F120.00
G01 X-550.2500 Y398.1500 F120.00
G01 X-549.3500 Y398.1500 F120.00
G01 X-549.3500 Y398.0900 F120.00
G01 X-550.2500 Y398.0900 F120.00
G01 X-550.2500 Y398.0300 F120.00
G01 X-549.3500 Y398.0300 F120.00
G01 X-549.3500 Y397.9700 F120.00
G01 X-550.2500 Y397.9700 F120.00
G01 X-550.2500 Y397.9100 F120.00
G01 X-549.3500 Y397.9100 F120.00
G01 X-549.3500 Y397.8500 F120.00
G01 X-550.2500 Y397.8500 F120.00
G01 X-550.2500 Y397.7900 F120.00
G01 X-549.3500 Y397.7900 F120.00
G01 X-549.3500 Y397.7300 F120.00
G01 X-550.2500 Y397.7300 F120.00
G01 X-550.2500 Y397.6700 F120.00
G01 X-549.3500 Y397.6700 F120.00
G01 X-549.3500 Y397.6100 F120.00
G01 X-550.2500 Y397.6100 F120.00
G01 X-550.2500 Y397.5500 F120.00
G01 X-549.3500 Y397.5500 F120.00
G01 X-549.3500 Y397.4900 F120.00
G01 X-550.2500 Y397.4900 F120.00
G01 X-550.2500 Y397.4300 F120.00
G01 X-549.3500 Y397.4300 F120.00
G01 X-549.3500 Y397.3700 F120.00
G01 X-550.2500 Y397.3700 F120.00
G01 X-550.2500 Y397.3100 F120.00
G01 X-549.3500 Y397.3100 F120.00
G01 X-549.3500 Y397.2500 F120.00
G01 X-550.2500 Y397.2500 F120.00
G01 X-550.2500 Y397.1900 F120.00
G01 X-549.3500 Y397.1900 F120.00
G01 X-549.3500 Y397.1300 F120.00
G01 X-550.2500 Y397.1300 F120.00
G01 X-550.2500 Y397.0700 F120.00
G01 X-549.3500 Y397.0700 F120.00
G01 X-549.3500 Y397.0100 F120.00
G01 X-550.2500 Y397.0100 F120.00
G01 X-550.2500 Y396.9500 F120.00
G01 X-549.3500 Y396.9500 F120.00
G01 X-549.3500 Y396.8900 F120.00
G01 X-550.2500 Y396.8900 F120.00
G01 X-550.2500 Y396.8300 F120.00
G01 X-549.3500 Y396.8300 F120.00
G01 X-549.3500 Y396.7700 F120.00
G01 X-550.2500 Y396.7700 F120.00
G01 X-550.2500 Y396.7100 F120.00
G01 X-549.3500 Y396.7100 F120.00
G01 X-549.3500 Y396.6500 F120.00
G01 X-550.2500 Y396.6500 F120.00
G01 X-550.2500 Y396.5900 F120.00
G01 X-549.3500 Y396.5900 F120.00
G01 X-549.3500 Y396.5300 F120.00
G01 X-550.2500 Y396.5300 F120.00
G01 X-550.2500 Y396.4700 F120.00
G01 X-549.3500 Y396.4700 F120.00
G01 X-549.3500 Y396.4100 F120.00
G01 X-550.2500 Y396.4100 F120.00
G01 X-550.2500 Y396.3500 F120.00
G01 X-549.3500 Y396.3500 F120.00
G01 X-549.3500 Y396.2900 F120.00
G01 X-550.2500 Y396.2900 F120.00
G01 X-550.2500 Y396.2300 F120.00
G01 X-549.3500 Y396.2300 F120.00
G01 X-549.3500 Y396.1700 F120.00
G01 X-550.2500 Y396.1700 F120.00
G01 X-550.2500 Y396.1100 F120.00
G01 X-549.3500 Y396.1100 F120.00
G01 X-549.3500 Y396.0500 F120.00
G01 X-550.2500 Y396.0500 F120.00
G01 X-550.2500 Y395.9900 F120.00
G01 X-549.3500 Y395.9900 F120.00
G01 X-549.3500 Y395.9300 F120.00
G01 X-550.2500 Y395.9300 F120.00
G01 X-550.2500 Y395.8700 F120.00
G01 X-549.3500 Y395.8700 F120.00
G01 X-549.3500 Y395.8100 F120.00
G01 X-550.2500 Y395.8100 F120.00
G01 X-550.2500 Y395.7500 F120.00
G01 X-549.3500 Y395.7500 F120.00
G01 X-549.3500 Y395.6900 F120.00
G01 X-550.2500 Y395.6900 F120.00
G01 X-550.2500 Y395.6300 F120.00
G01 X-549.3500 Y395.6300 F120.00
G01 X-549.3500 Y395.5700 F120.00
G01 X-550.2500 Y395.5700 F120.00
G01 X-550.2500 Y395.5100 F120.00
G01 X-549.3500 Y395.5100 F120.00
G01 X-549.3500 Y395.4500 F120.00
G01 X-550.2500 Y395.4500 F120.00
G01 X-550.2500 Y395.3900 F120.00
G01 X-549.3500 Y395.3900 F120.00
G01 X-549.3500 Y395.3300 F120.00
G01 X-550.2500 Y395.3300 F120.00
G01 X-550.2500 Y395.2700 F120.00
G01 X-549.3500 Y395.2700 F120.00
G01 X-549.3500 Y395.2100 F120.00
G01 X-550.2500 Y395.2100 F120.00
G01 X-550.2500 Y395.1500 F120.00
G01 X-549.3500 Y395.1500 F120.00
G01 X-549.3500 Y395.0900 F120.00
G01 X-550.2500 Y395.0900 F120.00
G01 X-550.2500 Y395.0300 F120.00
G01 X-549.3500 Y395.0300 F120.00
G01 X-549.3500 Y394.9700 F120.00
G01 X-550.2500 Y394.9700 F120.00
G01 X-550.2500 Y394.9100 F120.00
G01 X-549.3500 Y394.9100 F120.00
G01 X-549.3500 Y394.8500 F120.00
G01 X-550.2500 Y394.8500 F120.00
G01 X-550.2500 Y394.7900 F120.00
G01 X-549.3500 Y394.7900 F120.00
G01 X-549.3500 Y394.7300 F120.00
G01 X-550.2500 Y394.7300 F120.00
G01 X-550.2500 Y394.6700 F120.00
G01 X-549.3500 Y394.6700 F120.00
G01 X-549.3500 Y394.6100 F120.00
G01 X-550.2500 Y394.6100 F120.00
G01 X-550.2500 Y394.5500 F120.00
G01 X-549.3500 Y394.5500 F120.00
G01 X-549.3500 Y394.4900 F120.00
G01 X-550.2500 Y394.4900 F120.00
G01 X-550.2500 Y394.4300 F120.00
G01 X-549.3500 Y394.4300 F120.00
G01 X-549.3500 Y394.3700 F120.00
G01 X-550.2500 Y394.3700 F120.00
G01 X-550.2500 Y394.3100 F120.00
G01 X-549.3500 Y394.3100 F120.00
G01 X-549.3500 Y394.2500 F120.00
G01 X-550.2500 Y394.2500 F120.00
G01 X-550.2500 Y394.1900 F120.00
G01 X-549.3500 Y394.1900 F120.00
G01 X-549.3500 Y394.1300 F120.00
G01 X-550.2500 Y394.1300 F120.00
G01 X-550.2500 Y394.0700 F120.00
G01 X-549.3500 Y394.0700 F120.00
G01 X-549.3500 Y394.0100 F120.00
G01 X-550.2500 Y394.0100 F120.00
G01 X-550.2500 Y393.9500 F120.00
G01 X-549.3500 Y393.9500 F120.00
G01 X-549.3500 Y393.8900 F120.00
G01 X-550.2500 Y393.8900 F120.00
G01 X-550.2500 Y393.8300 F120.00
G01 X-549.3500 Y393.8300 F120.00
G01 X-549.3500 Y393.7700 F120.00
G01 X-550.2500 Y393.7700 F120.00
G01 X-550.2500 Y393.7100 F120.00
G01 X-549.3500 Y393.7100 F120.00
G01 X-549.3500 Y393.6500 F120.00
G01 X-550.2500 Y393.6500 F120.00
G01 X-550.2500 Y393.5900 F120.00
G01 X-549.3500 Y393.5900 F120.00
G01 X-549.3500 Y393.5300 F120.00
G01 X-550.2500 Y393.5300 F120.00
G01 X-550.2500 Y393.4700 F120.00
G01 X-549.3500 Y393.4700 F120.00
G01 X-549.3500 Y393.4100 F120.00
G01 X-550.2500 Y393.4100 F120.00
G01 X-550.2500 Y393.3500 F120.00
G01 X-549.3500 Y393.3500 F120.00
G01 X-549.3500 Y393.2900 F120.00
G01 X-550.2500 Y393.2900 F120.00
G01 X-550.2500 Y393.2300 F120.00
G01 X-549.3500 Y393.2300 F120.00
G01 X-549.3500 Y393.1700 F120.00
G01 X-550.2500 Y393.1700 F120.00
G01 X-550.2500 Y393.1100 F120.00
G01 X-549.3500 Y393.1100 F120.00
G01 X-549.3500 Y393.0500 F120.00
G01 X-550.2500 Y393.0500 F120.00
G01 X-550.2500 Y392.9900 F120.00
G01 X-549.3500 Y392.9900 F120.00
G01 X-549.3500 Y392.9300 F120.00
G01 X-550.2500 Y392.9300 F120.00
G01 X-550.2500 Y392.8700 F120.00
G01 X-549.3500 Y392.8700 F120.00
G01 X-549.3500 Y392.8100 F120.00
G01 X-550.2500 Y392.8100 F120.00
G01 X-550.2500 Y392.7500 F120.00
G01 X-549.3500 Y392.7500 F120.00
G01 X-549.3500 Y392.6900 F120.00
G01 X-550.2500 Y392.6900 F120.00
G01 X-550.2500 Y392.6300 F120.00
G01 X-549.3500 Y392.6300 F120.00
G01 X-549.3500 Y392.5700 F120.00
G01 X-550.2500 Y392.5700 F120.00
G01 X-550.2500 Y392.5100 F120.00
G01 X-549.3500 Y392.5100 F120.00
G01 X-549.3500 Y392.4500 F120.00
G01 X-550.2500 Y392.4500 F120.00
G01 X-550.2500 Y392.3900 F120.00
G01 X-549.3500 Y392.3900 F120.00
G01 X-549.3500 Y392.3300 F120.00
G01 X-550.2500 Y392.3300 F120.00
G01 X-550.2500 Y392.2700 F120.00
G01 X-549.3500 Y392.2700 F120.00
G01 X-549.3500 Y392.2100 F120.00
G01 X-550.2500 Y392.2100 F120.00
G01 X-550.2500 Y392.1500 F120.00
G01 X-549.3500 Y392.1500 F120.00
G01 X-549.3500 Y392.0900 F120.00
G01 X-550.2500 Y392.0900 F120.00
G01 X-550.2500 Y392.0300 F120.00
G01 X-549.3500 Y392.0300 F120.00
G01 X-549.3500 Y391.9700 F120.00
G01 X-550.2500 Y391.9700 F120.00
G01 X-550.2500 Y391.9100 F120.00
G01 X-549.3500 Y391.9100 F120.00
G01 X-549.3500 Y391.8500 F120.00
G01 X-550.2500 Y391.8500 F120.00
G01 X-550.2500 Y391.7900 F120.00
G01 X-549.3500 Y391.7900 F120.00
G01 X-549.3500 Y391.7300 F120.00
G01 X-550.2500 Y391.7300 F120.00
G01 X-550.2500 Y391.6700 F120.00
G01 X-549.3500 Y391.6700 F120.00
G01 X-549.3500 Y391.6100 F120.00
G01 X-550.2500 Y391.6100 F120.00
G01 X-550.2500 Y391.5500 F120.00
G01 X-549.3500 Y391.5500 F120.00
G01 X-549.3500 Y391.4900 F120.00
G01 X-550.2500 Y391.4900 F120.00
G01 X-550.2500 Y391.4300 F120.00
G01 X-549.3500 Y391.4300 F120.00
G01 X-549.3500 Y391.3700 F120.00
G01 X-550.2500 Y391.3700 F120.00
G01 X-550.2500 Y391.3100 F120.00
G01 X-549.3500 Y391.3100 F120.00
G01 X-549.3500 Y391.2500 F120.00
G01 X-550.2500 Y391.2500 F120.00
G01 X-550.2500 Y391.1900 F120.00
G01 X-549.3500 Y391.1900 F120.00
G01 X-549.3500 Y391.1300 F120.00
G01 X-550.2500 Y391.1300 F120.00
G01 X-550.2500 Y391.0700 F120.00
G01 X-549.3500 Y391.0700 F120.00
G01 X-549.3500 Y391.0100 F120.00
G01 X-550.2500 Y391.0100 F120.00
G01 X-550.2500 Y390.9500 F120.00
G01 X-549.3500 Y390.9500 F120.00
G01 X-549.3500 Y390.8900 F120.00
G01 X-550.2500 Y390.8900 F120.00
G01 X-550.2500 Y390.8300 F120.00
G01 X-549.3500 Y390.8300 F120.00
G01 X-549.3500 Y390.7700 F120.00
G01 X-550.2500 Y390.7700 F120.00
G01 X-550.2500 Y390.7100 F120.00
G01 X-549.3500 Y390.7100 F120.00
G01 X-549.3500 Y390.6500 F120.00
G01 X-550.2500 Y390.6500 F120.00
G01 X-550.2500 Y390.5900 F120.00
G01 X-549.3500 Y390.5900 F120.00
G01 X-549.3500 Y390.5300 F120.00
G01 X-550.2500 Y390.5300 F120.00
G01 X-550.2500 Y390.4700 F120.00
G01 X-549.3500 Y390.4700 F120.00
G01 X-549.3500 Y390.4100 F120.00
G01 X-550.2500 Y390.4100 F120.00
G01 X-550.2500 Y390.3500 F120.00
G01 X-549.3500 Y390.3500 F120.00
G01 X-549.3500 Y390.2900 F120.00
G01 X-550.2500 Y390.2900 F120.00
G01 X-550.2500 Y390.2300 F120.00
G01 X-549.3500 Y390.2300 F120.00
G01 X-549.3500 Y390.1700 F120.00
G01 X-550.2500 Y390.1700 F120.00
G01 X-550.2500 Y390.1100 F120.00
G01 X-549.3500 Y390.1100 F120.00
G01 X-549.3500 Y390.0500 F120.00
G01 X-550.2500 Y390.0500 F120.00
G01 X-550.2500 Y389.9900 F120.00
G01 X-549.3500 Y389.9900 F120.00
G01 X-549.3500 Y389.9300 F120.00
G01 X-550.2500 Y389.9300 F120.00
G01 X-550.2500 Y389.8700 F120.00
G01 X-549.3500 Y389.8700 F120.00
G01 X-549.3500 Y389.8100 F120.00
G01 X-550.2500 Y389.8100 F120.00
G01 X-550.2500 Y389.7500 F120.00
G01 X-549.3500 Y389.7500 F120.00
G01 X-549.3500 Y389.6900 F120.00
G01 X-550.2500 Y389.6900 F120.00
G01 X-550.2500 Y389.6300 F120.00
G01 X-549.3500 Y389.6300 F120.00
G01 X-549.3500 Y389.5700 F120.00
G01 X-550.2500 Y389.5700 F120.00
G01 X-550.2500 Y389.5100 F120.00
G01 X-549.3500 Y389.5100 F120.00
G01 X-549.3500 Y389.4500 F120.00
G01 X-550.2500 Y389.4500 F120.00
G01 X-550.2500 Y389.3900 F120.00
G01 X-549.3500 Y389.3900 F120.00
G01 X-549.3500 Y389.3300 F120.00
G01 X-550.2500 Y389.3300 F120.00
G01 X-550.2500 Y389.2700 F120.00
G01 X-549.3500 Y389.2700 F120.00
G01 X-549.3500 Y389.2100 F120.00
G01 X-550.2500 Y389.2100 F120.00
G01 X-550.2500 Y389.1500 F120.00
G01 X-549.3500 Y389.1500 F120.00
G01 X-549.3500 Y389.0900 F120.00
G01 X-550.2500 Y389.0900 F120.00
G01 X-550.2500 Y389.0300 F120.00
G01 X-549.3500 Y389.0300 F120.00
G01 X-549.3500 Y388.9700 F120.00
G01 X-550.2500 Y388.9700 F120.00
G01 X-550.2500 Y388.9100 F120.00
G01 X-549.3500 Y388.9100 F120.00
G01 X-549.3500 Y388.8500 F120.00
G01 X-550.2500 Y388.8500 F120.00
G01 X-550.2500 Y388.7900 F120.00
G01 X-549.3500 Y388.7900 F120.00
G01 X-549.3500 Y388.7300 F120.00
G01 X-550.2500 Y388.7300 F120.00
G01 X-550.2500 Y388.6700 F120.00
G01 X-549.3500 Y388.6700 F120.00
G01 X-549.3500 Y388.6100 F120.00
G01 X-550.2500 Y388.6100 F120.00
G01 X-550.2500 Y388.5500 F120.00
G01 X-549.3500 Y388.5500 F120.00
G01 X-549.3500 Y388.4900 F120.00
G01 X-550.2500 Y388.4900 F120.00
G01 X-550.2500 Y388.4300 F120.00
G01 X-549.3500 Y388.4300 F120.00
G01 X-549.3500 Y388.3700 F120.00
G01 X-550.2500 Y388.3700 F120.00
G01 X-550.2500 Y388.3100 F120.00
G01 X-549.3500 Y388.3100 F120.00
G01 X-549.3500 Y388.2500 F120.00
G01 X-550.2500 Y388.2500 F120.00
G01 X-550.2500 Y388.1900 F120.00
G01 X-549.3500 Y388.1900 F120.00
G01 X-549.3500 Y388.1300 F120.00
G01 X-550.2500 Y388.1300 F120.00
G01 X-550.2500 Y388.0700 F120.00
G01 X-549.3500 Y388.0700 F120.00
G01 X-549.3500 Y388.0100 F120.00
G01 X-550.2500 Y388.0100 F120.00
G01 X-550.2500 Y387.9500 F120.00
G01 X-549.3500 Y387.9500 F120.00
G01 X-549.3500 Y387.8900 F120.00
G01 X-550.2500 Y387.8900 F120.00
G01 X-550.2500 Y387.8300 F120.00
G01 X-549.3500 Y387.8300 F120.00
G01 X-549.3500 Y387.7700 F120.00
G01 X-550.2500 Y387.7700 F120.00
G01 X-550.2500 Y387.7100 F120.00
G01 X-549.3500 Y387.7100 F120.00
G01 X-549.3500 Y387.6500 F120.00
G01 X-550.2500 Y387.6500 F120.00
G01 X-550.2500 Y387.5900 F120.00
G01 X-549.3500 Y387.5900 F120.00
G01 X-549.3500 Y387.5300 F120.00
G01 X-550.2500 Y387.5300 F120.00
G01 X-550.2500 Y387.4700 F120.00
G01 X-549.3500 Y387.4700 F120.00
G01 X-549.3500 Y387.4100 F120.00
G01 X-550.2500 Y387.4100 F120.00
G01 X-550.2500 Y387.3500 F120.00
G01 X-549.3500 Y387.3500 F120.00
G01 X-549.3500 Y387.2900 F120.00
G01 X-550.2500 Y387.2900 F120.00
G01 X-550.2500 Y387.2300 F120.00
G01 X-549.3500 Y387.2300 F120.00
G01 X-549.3500 Y387.1700 F120.00
G01 X-550.2500 Y387.1700 F120.00
G01 X-550.2500 Y387.1100 F120.00
G01 X-549.3500 Y387.1100 F120.00
G01 X-549.3500 Y387.0500 F120.00
G01 X-550.2500 Y387.0500 F120.00
G01 X-550.2500 Y386.9900 F120.00
G01 X-549.3500 Y386.9900 F120.00
G01 X-549.3500 Y386.9300 F120.00
G01 X-550.2500 Y386.9300 F120.00
G01 X-550.2500 Y386.8700 F120.00
G01 X-549.3500 Y386.8700 F120.00
G01 X-549.3500 Y386.8100 F120.00
G01 X-550.2500 Y386.8100 F120.00
G01 X-550.2500 Y386.7500 F120.00
G01 X-549.3500 Y386.7500 F120.00
G01 X-549.3500 Y386.6900 F120.00
G01 X-550.2500 Y386.6900 F120.00
G01 X-550.2500 Y386.6300 F120.00
G01 X-549.3500 Y386.6300 F120.00
G01 X-549.3500 Y386.5700 F120.00
G01 X-550.2500 Y386.5700 F120.00
G01 X-550.2500 Y386.5100 F120.00
G01 X-549.3500 Y386.5100 F120.00
G01 X-549.3500 Y386.4500 F120.00
G01 X-550.2500 Y386.4500 F120.00
G01 X-550.2500 Y386.3900 F120.00
G01 X-549.3500 Y386.3900 F120.00
G01 X-549.3500 Y386.3300 F120.00
G01 X-550.2500 Y386.3300 F120.00
G01 X-550.2500 Y386.2700 F120.00
G01 X-549.3500 Y386.2700 F120.00
G01 X-549.3500 Y386.2100 F120.00
G01 X-550.2500 Y386.2100 F120.00
G01 X-550.2500 Y386.1500 F120.00
G01 X-549.3500 Y386.1500 F120.00
G01 X-549.3500 Y386.0900 F120.00
G01 X-550.2500 Y386.0900 F120.00
G01 X-550.2500 Y386.0300 F120.00
G01 X-549.3500 Y386.0300 F120.00
G01 X-549.3500 Y385.9700 F120.00
G01 X-550.2500 Y385.9700 F120.00
G01 X-550.2500 Y385.9100 F120.00
G01 X-549.3500 Y385.9100 F120.00
G01 X-549.3500 Y385.8500 F120.00
G01 X-550.2500 Y385.8500 F120.00
G01 X-550.2500 Y385.7900 F120.00
G01 X-549.3500 Y385.7900 F120.00
G01 X-549.3500 Y385.7300 F120.00
G01 X-550.2500 Y385.7300 F120.00
G01 X-550.2500 Y385.6700 F120.00
G01 X-549.3500 Y385.6700 F120.00
G01 X-549.3500 Y385.6100 F120.00
G01 X-550.2500 Y385.6100 F120.00
G01 X-550.2500 Y385.5500 F120.00
G01 X-549.3500 Y385.5500 F120.00
G01 X-549.3500 Y385.4900 F120.00
G01 X-550.2500 Y385.4900 F120.00
G01 X-550.2500 Y385.4300 F120.00
G01 X-549.3500 Y385.4300 F120.00
G01 X-549.3500 Y385.3700 F120.00
G01 X-550.2500 Y385.3700 F120.00
G01 X-550.2500 Y385.3100 F120.00
G01 X-549.3500 Y385.3100 F120.00
G01 X-549.3500 Y385.2500 F120.00
G01 X-550.2500 Y385.2500 F120.00
G01 X-550.2500 Y385.1900 F120.00
G01 X-549.3500 Y385.1900 F120.00
G01 X-549.3500 Y385.1300 F120.00
G01 X-550.2500 Y385.1300 F120.00
G01 X-550.2500 Y385.0700 F120.00
G01 X-549.3500 Y385.0700 F120.00
G01 X-549.3500 Y385.0100 F120.00
G01 X-550.2500 Y385.0100 F120.00
G01 X-550.2500 Y384.9500 F120.00
G01 X-549.3500 Y384.9500 F120.00
G01 X-549.3500 Y384.8900 F120.00
G01 X-550.2500 Y384.8900 F120.00
G01 X-550.2500 Y384.8300 F120.00
G01 X-549.3500 Y384.8300 F120.00
G01 X-549.3500 Y384.7700 F120.00
G01 X-550.2500 Y384.7700 F120.00
G01 X-550.2500 Y384.7100 F120.00
G01 X-549.3500 Y384.7100 F120.00
G01 X-549.3500 Y384.6500 F120.00
G01 X-550.2500 Y384.6500 F120.00
G01 X-550.2500 Y384.5900 F120.00
G01 X-549.3500 Y384.5900 F120.00
G01 X-549.3500 Y384.5300 F120.00
G01 X-550.2500 Y384.5300 F120.00
G01 X-550.2500 Y384.4700 F120.00
G01 X-549.3500 Y384.4700 F120.00
G01 X-549.3500 Y384.4100 F120.00
G01 X-550.2500 Y384.4100 F120.00
G01 X-550.2500 Y384.3500 F120.00
G01 X-549.3500 Y384.3500 F120.00
G01 X-549.3500 Y384.2900 F120.00
G01 X-550.2500 Y384.2900 F120.00
G01 X-550.2500 Y384.2300 F120.00
G01 X-549.3500 Y384.2300 F120.00
G01 X-549.3500 Y384.1700 F120.00
G01 X-550.2500 Y384.1700 F120.00
G01 X-550.2500 Y384.1100 F120.00
G01 X-549.3500 Y384.1100 F120.00
G01 X-549.3500 Y384.0500 F120.00
G01 X-550.2500 Y384.0500 F120.00
G01 X-550.2500 Y383.9900 F120.00
G01 X-549.3500 Y383.9900 F120.00
G01 X-549.3500 Y383.9300 F120.00
G01 X-550.2500 Y383.9300 F120.00
G01 X-550.2500 Y383.8700 F120.00
G01 X-549.3500 Y383.8700 F120.00
G01 X-549.3500 Y383.8100 F120.00
G01 X-550.2500 Y383.8100 F120.00
G01 X-550.2500 Y383.7500 F120.00
G01 X-549.3500 Y383.7500 F120.00
G01 X-549.3500 Y383.6900 F120.00
G01 X-550.2500 Y383.6900 F120.00
G01 X-550.2500 Y383.6300 F120.00
G01 X-549.3500 Y383.6300 F120.00
G01 X-549.3500 Y383.5700 F120.00
G01 X-550.2500 Y383.5700 F120.00
G01 X-550.2500 Y383.5100 F120.00
G01 X-549.3500 Y383.5100 F120.00
G01 X-549.3500 Y383.4500 F120.00
G01 X-550.2500 Y383.4500 F120.00
G01 X-550.2500 Y383.3900 F120.00
G01 X-549.3500 Y383.3900 F120.00
G01 X-549.3500 Y383.3300 F120.00
G01 X-550.2500 Y383.3300 F120.00
G01 X-550.2500 Y383.2700 F120.00
G01 X-549.3500 Y383.2700 F120.00
G01 X-549.3500 Y383.2100 F120.00
G01 X-550.2500 Y383.2100 F120.00
G01 X-550.2500 Y383.1500 F120.00
G01 X-549.3500 Y383.1500 F120.00
G01 X-549.3500 Y383.0900 F120.00
G01 X-550.2500 Y383.0900 F120.00
G01 X-550.2500 Y383.0300 F120.00
G01 X-549.3500 Y383.0300 F120.00
G01 X-549.3500 Y382.9700 F120.00
G01 X-550.2500 Y382.9700 F120.00
G01 X-550.2500 Y382.9100 F120.00
G01 X-549.3500 Y382.9100 F120.00
G01 X-549.3500 Y382.8500 F120.00
G01 X-550.2500 Y382.8500 F120.00
G01 X-550.2500 Y382.7900 F120.00
G01 X-549.3500 Y382.7900 F120.00
G01 X-549.3500 Y382.7300 F120.00
G01 X-550.2500 Y382.7300 F120.00
G01 X-550.2500 Y382.6700 F120.00
G01 X-549.3500 Y382.6700 F120.00
G01 X-549.3500 Y382.6100 F120.00
G01 X-550.2500 Y382.6100 F120.00
G01 X-550.2500 Y382.5500 F120.00
G01 X-549.3500 Y382.5500 F120.00
G01 X-549.3500 Y382.4900 F120.00
G01 X-550.2500 Y382.4900 F120.00
G01 X-550.2500 Y382.4300 F120.00
G01 X-549.3500 Y382.4300 F120.00
G01 X-549.3500 Y382.3700 F120.00
G01 X-550.2500 Y382.3700 F120.00
G01 X-550.2500 Y382.3100 F120.00
G01 X-549.3500 Y382.3100 F120.00
G01 X-549.3500 Y382.2500 F120.00
G01 X-550.2500 Y382.2500 F120.00
G01 X-550.2500 Y382.1900 F120.00
G01 X-549.3500 Y382.1900 F120.00
G01 X-549.3500 Y382.1300 F120.00
G01 X-550.2500 Y382.1300 F120.00
G01 X-550.2500 Y382.0700 F120.00
G01 X-549.3500 Y382.0700 F120.00
G01 X-549.3500 Y382.0100 F120.00
G01 X-550.2500 Y382.0100 F120.00
G01 X-550.2500 Y381.9500 F120.00
G01 X-549.3500 Y381.9500 F120.00
G01 X-549.3500 Y381.8900 F120.00
G01 X-550.2500 Y381.8900 F120.00
G01 X-550.2500 Y381.8300 F120.00
G01 X-549.3500 Y381.8300 F120.00
G01 X-549.3500 Y381.7700 F120.00
G01 X-550.2500 Y381.7700 F120.00
G01 X-550.2500 Y381.7100 F120.00
G01 X-549.3500 Y381.7100 F120.00
G01 X-549.3500 Y381.6500 F120.00
G01 X-550.2500 Y381.6500 F120.00
G01 X-550.2500 Y381.5900 F120.00
G01 X-549.3500 Y381.5900 F120.00
G01 X-549.3500 Y381.5300 F120.00
G01 X-550.2500 Y381.5300 F120.00
G01 X-550.2500 Y381.4700 F120.00
G01 X-549.3500 Y381.4700 F120.00
G01 X-549.3500 Y381.4100 F120.00
G01 X-550.2500 Y381.4100 F120.00
G01 X-550.2500 Y381.3500 F120.00
G01 X-549.3500 Y381.3500 F120.00
G01 X-549.3500 Y381.2900 F120.00
G01 X-550.2500 Y381.2900 F120.00
G01 X-550.2500 Y381.2300 F120.00
G01 X-549.3500 Y381.2300 F120.00
G01 X-549.3500 Y381.1700 F120.00
G01 X-550.2500 Y381.1700 F120.00
G01 X-550.2500 Y381.1100 F120.00
G01 X-549.3500 Y381.1100 F120.00
G01 X-549.3500 Y381.0500 F120.00
G01 X-550.2500 Y381.0500 F120.00
G01 X-550.2500 Y380.9900 F120.00
G01 X-549.3500 Y380.9900 F120.00
G01 X-549.3500 Y380.9300 F120.00
G01 X-550.2500 Y380.9300 F120.00
G01 X-550.2500 Y380.8700 F120.00
G01 X-549.3500 Y380.8700 F120.00
G01 X-549.3500 Y380.8100 F120.00
G01 X-550.2500 Y380.8100 F120.00
G01 X-550.2500 Y380.7500 F120.00
G01 X-549.3500 Y380.7500 F120.00
G01 X-549.3500 Y380.6900 F120.00
G01 X-550.2500 Y380.6900 F120.00
G01 X-550.2500 Y380.6300 F120.00
G01 X-549.3500 Y380.6300 F120.00
G01 X-549.3500 Y380.5700 F120.00
G01 X-550.2500 Y380.5700 F120.00
G01 X-550.2500 Y380.5100 F120.00
G01 X-549.3500 Y380.5100 F120.00
G01 X-549.3500 Y380.4500 F120.00
G01 X-550.2500 Y380.4500 F120.00
G01 X-550.2500 Y380.3900 F120.00
G01 X-549.3500 Y380.3900 F120.00
G01 X-549.3500 Y380.3300 F120.00
G01 X-550.2500 Y380.3300 F120.00
G01 X-550.2500 Y380.2700 F120.00
G01 X-549.3500 Y380.2700 F120.00
G01 X-549.3500 Y380.2100 F120.00
G01 X-550.2500 Y380.2100 F120.00
G01 X-550.2500 Y380.1500 F120.00
G01 X-549.3500 Y380.1500 F120.00
G01 X-549.3500 Y380.0900 F120.00
G01 X-550.2500 Y380.0900 F120.00
G01 X-550.2500 Y380.0300 F120.00
G01 X-549.3500 Y380.0300 F120.00
G01 X-549.3500 Y379.9700 F120.00
G01 X-550.2500 Y379.9700 F120.00
G01 X-550.2500 Y379.9100 F120.00
G01 X-549.3500 Y379.9100 F120.00
G01 X-549.3500 Y379.8500 F120.00
G01 X-550.2500 Y379.8500 F120.00
G01 X-550.2500 Y379.7900 F120.00
G01 X-549.3500 Y379.7900 F120.00
G01 X-549.3500 Y379.7300 F120.00
G01 X-550.2500 Y379.7300 F120.00
G01 X-550.2500 Y379.6700 F120.00
G01 X-549.3500 Y379.6700 F120.00
G01 X-549.3500 Y379.6100 F120.00
G01 X-550.2500 Y379.6100 F120.00
G01 X-550.2500 Y379.5500 F120.00
G01 X-549.3500 Y379.5500 F120.00
G01 X-549.3500 Y379.4900 F120.00
G01 X-550.2500 Y379.4900 F120.00
G01 X-550.2500 Y379.4300 F120.00
G01 X-549.3500 Y379.4300 F120.00
G01 X-549.3500 Y379.3700 F120.00
G01 X-550.2500 Y379.3700 F120.00
G01 X-550.2500 Y379.3100 F120.00
G01 X-549.3500 Y379.3100 F120.00
G01 X-549.3500 Y379.2500 F120.00
G01 X-550.2500 Y379.2500 F120.00
G01 X-550.2500 Y379.1900 F120.00
G01 X-549.3500 Y379.1900 F120.00
G01 X-549.3500 Y379.1300 F120.00
G01 X-550.2500 Y379.1300 F120.00
G01 X-550.2500 Y379.0700 F120.00
G01 X-549.3500 Y379.0700 F120.00
G01 X-549.3500 Y379.0100 F120.00
G01 X-550.2500 Y379.0100 F120.00
G01 X-550.2500 Y378.9500 F120.00
G01 X-549.3500 Y378.9500 F120.00
G01 X-549.3500 Y378.8900 F120.00
G01 X-550.2500 Y378.8900 F120.00
G01 X-550.2500 Y378.8300 F120.00
G01 X-549.3500 Y378.8300 F120.00
G01 X-549.3500 Y378.7700 F120.00
G01 X-550.2500 Y378.7700 F120.00
G01 X-550.2500 Y378.7100 F120.00
G01 X-549.3500 Y378.7100 F120.00
G01 X-549.3500 Y378.6500 F120.00
G01 X-550.2500 Y378.6500 F120.00
G01 X-550.2500 Y378.5900 F120.00
G01 X-549.3500 Y378.5900 F120.00
G01 X-549.3500 Y378.5300 F120.00
G01 X-550.2500 Y378.5300 F120.00
G01 X-550.2500 Y378.4700 F120.00
G01 X-549.3500 Y378.4700 F120.00
G01 X-549.3500 Y378.4100 F120.00
G01 X-550.2500 Y378.4100 F120.00
G01 X-550.2500 Y378.3500 F120.00
G01 X-549.3500 Y378.3500 F120.00
G01 X-549.3500 Y378.2900 F120.00
G01 X-550.2500 Y378.2900 F120.00
G01 X-550.2500 Y378.2300 F120.00
G01 X-549.3500 Y378.2300 F120.00
G01 X-549.3500 Y378.1700 F120.00
G01 X-550.2500 Y378.1700 F120.00
G01 X-550.2500 Y378.1100 F120.00
G01 X-549.3500 Y378.1100 F120.00
G01 X-549.3500 Y378.0500 F120.00
G01 X-550.2500 Y378.0500 F120.00
G01 X-550.2500 Y377.9900 F120.00
G01 X-549.3500 Y377.9900 F120.00
G01 X-549.3500 Y377.9300 F120.00
G01 X-550.2500 Y377.9300 F120.00
G01 X-550.2500 Y377.8700 F120.00
G01 X-549.3500 Y377.8700 F120.00
G01 X-549.3500 Y377.8100 F120.00
G01 X-550.2500 Y377.8100 F120.00
G01 X-550.2500 Y377.7500 F120.00
G01 X-549.3500 Y377.7500 F120.00
G01 X-549.3500 Y377.6900 F120.00
G01 X-550.2500 Y377.6900 F120.00
G01 X-550.2500 Y377.6300 F120.00
G01 X-549.3500 Y377.6300 F120.00
G01 X-549.3500 Y377.5700 F120.00
G01 X-550.2500 Y377.5700 F120.00
G01 X-550.2500 Y377.5100 F120.00
G01 X-549.3500 Y377.5100 F120.00
G01 X-549.3500 Y377.4500 F120.00
G01 X-550.2500 Y377.4500 F120.00
G01 X-550.2500 Y377.3900 F120.00
G01 X-549.3500 Y377.3900 F120.00
G01 X-549.3500 Y377.3300 F120.00
G01 X-550.2500 Y377.3300 F120.00
G01 X-550.2500 Y377.2700 F120.00
G01 X-549.3500 Y377.2700 F120.00
G01 X-549.3500 Y377.2100 F120.00
G01 X-550.2500 Y377.2100 F120.00
G01 X-550.2500 Y377.1500 F120.00
G01 X-549.3500 Y377.1500 F120.00
G01 X-549.3500 Y377.0900 F120.00
G01 X-550.2500 Y377.0900 F120.00
G01 X-550.2500 Y377.0300 F120.00
G01 X-549.3500 Y377.0300 F120.00
G01 X-549.3500 Y376.9700 F120.00
G01 X-550.2500 Y376.9700 F120.00
G01 X-550.2500 Y376.9100 F120.00
G01 X-549.3500 Y376.9100 F120.00
G01 X-549.3500 Y376.8500 F120.00
G01 X-550.2500 Y376.8500 F120.00
G01 X-550.2500 Y376.7900 F120.00
G01 X-549.3500 Y376.7900 F120.00
G01 X-549.3500 Y376.7300 F120.00
G01 X-550.2500 Y376.7300 F120.00
G01 X-550.2500 Y376.6700 F120.00
G01 X-549.3500 Y376.6700 F120.00
G01 X-549.3500 Y376.6100 F120.00
G01 X-550.2500 Y376.6100 F120.00
G01 X-550.2500 Y376.5500 F120.00
G01 X-549.3500 Y376.5500 F120.00
G01 X-549.3500 Y376.4900 F120.00
G01 X-550.2500 Y376.4900 F120.00
G01 X-550.2500 Y376.4300 F120.00
G01 X-549.3500 Y376.4300 F120.00
G01 X-549.3500 Y376.3700 F120.00
G01 X-550.2500 Y376.3700 F120.00
G01 X-550.2500 Y376.3100 F120.00
G01 X-549.3500 Y376.3100 F120.00
G01 X-549.3500 Y376.2500 F120.00
G01 X-550.2500 Y376.2500 F120.00
G01 X-550.2500 Y376.1900 F120.00
G01 X-549.3500 Y376.1900 F120.00
G01 X-549.3500 Y376.1300 F120.00
G01 X-550.2500 Y376.1300 F120.00
G01 X-550.2500 Y376.0700 F120.00
G01 X-549.3500 Y376.0700 F120.00
G01 X-549.3500 Y376.0100 F120.00
G01 X-550.2500 Y376.0100 F120.00
G01 X-550.2500 Y375.9500 F120.00
G01 X-549.3500 Y375.9500 F120.00
G01 X-549.3500 Y375.8900 F120.00
G01 X-550.2500 Y375.8900 F120.00
G01 X-550.2500 Y375.8300 F120.00
G01 X-549.3500 Y375.8300 F120.00
G01 X-549.3500 Y375.7700 F120.00
G01 X-550.2500 Y375.7700 F120.00
G01 X-550.2500 Y375.7100 F120.00
G01 X-549.3500 Y375.7100 F120.00
G01 X-549.3500 Y375.6500 F120.00
G01 X-550.2500 Y375.6500 F120.00
G01 X-550.2500 Y375.5900 F120.00
G01 X-549.3500 Y375.5900 F120.00
G01 X-549.3500 Y375.5300 F120.00
G01 X-550.2500 Y375.5300 F120.00
G01 X-550.2500 Y375.4700 F120.00
G01 X-549.3500 Y375.4700 F120.00
G01 X-549.3500 Y375.4100 F120.00
G01 X-550.2500 Y375.4100 F120.00
G01 X-550.2500 Y375.3500 F120.00
G01 X-549.3500 Y375.3500 F120.00
G01 X-549.3500 Y375.2900 F120.00
G01 X-550.2500 Y375.2900 F120.00
G01 X-550.2500 Y375.2300 F120.00
G01 X-549.3500 Y375.2300 F120.00
G01 X-549.3500 Y375.1700 F120.00
G01 X-550.2500 Y375.1700 F120.00
G01 X-550.2500 Y375.1100 F120.00
G01 X-549.3500 Y375.1100 F120.00
G01 X-549.3500 Y375.0500 F120.00
G01 X-550.2500 Y375.0500 F120.00
G01 X-550.2500 Y374.9900 F120.00
G01 X-549.3500 Y374.9900 F120.00
G01 X-549.3500 Y374.9300 F120.00
G01 X-550.2500 Y374.9300 F120.00
G01 X-550.2500 Y374.8700 F120.00
G01 X-549.3500 Y374.8700 F120.00
G01 X-549.3500 Y374.8100 F120.00
G01 X-550.2500 Y374.8100 F120.00
G01 X-550.2500 Y374.7500 F120.00
G01 X-549.3500 Y374.7500 F120.00
G01 X-549.3500 Y374.6900 F120.00
G01 X-550.2500 Y374.6900 F120.00
G01 X-550.2500 Y374.6300 F120.00
G01 X-549.3500 Y374.6300 F120.00
G01 X-549.3500 Y374.5700 F120.00
G01 X-550.2500 Y374.5700 F120.00
G01 X-550.2500 Y374.5100 F120.00
G01 X-549.3500 Y374.5100 F120.00
G01 X-549.3500 Y374.4500 F120.00
G01 X-550.2500 Y374.4500 F120.00
G01 X-550.2500 Y374.3900 F120.00
G01 X-549.3500 Y374.3900 F120.00
G01 X-549.3500 Y374.3300 F120.00
G01 X-550.2500 Y374.3300 F120.00
G01 X-550.2500 Y374.2700 F120.00
G01 X-549.3500 Y374.2700 F120.00
G01 X-549.3500 Y374.2100 F120.00
G01 X-550.2500 Y374.2100 F120.00
G01 X-550.2500 Y374.1500 F120.00
G01 X-549.3500 Y374.1500 F120.00
G01 X-549.3500 Y374.0900 F120.00
G01 X-550.2500 Y374.0900 F120.00
G01 X-550.2500 Y374.0300 F120.00
G01 X-549.3500 Y374.0300 F120.00
G01 X-549.3500 Y373.9700 F120.00
G01 X-550.2500 Y373.9700 F120.00
G01 X-550.2500 Y373.9100 F120.00
G01 X-549.3500 Y373.9100 F120.00
G01 X-549.3500 Y373.8500 F120.00
G01 X-550.2500 Y373.8500 F120.00
G01 X-550.2500 Y373.7900 F120.00
G01 X-549.3500 Y373.7900 F120.00
G01 X-549.3500 Y373.7300 F120.00
G01 X-550.2500 Y373.7300 F120.00
G01 X-550.2500 Y373.6700 F120.00
G01 X-549.3500 Y373.6700 F120.00
G01 X-549.3500 Y373.6100 F120.00
G01 X-550.2500 Y373.6100 F120.00
G01 X-550.2500 Y373.5500 F120.00
G01 X-549.3500 Y373.5500 F120.00
G01 X-549.3500 Y373.4900 F120.00
G01 X-550.2500 Y373.4900 F120.00
G01 X-550.2500 Y373.4300 F120.00
G01 X-549.3500 Y373.4300 F120.00
G01 X-549.3500 Y373.3700 F120.00
G01 X-550.2500 Y373.3700 F120.00
G01 X-550.2500 Y373.3100 F120.00
G01 X-549.3500 Y373.3100 F120.00
G01 X-549.3500 Y373.2500 F120.00
G01 X-550.2500 Y373.2500 F120.00
G01 X-550.2500 Y373.1900 F120.00
G01 X-549.3500 Y373.1900 F120.00
G01 X-549.3500 Y373.1300 F120.00
G01 X-550.2500 Y373.1300 F120.00
G01 X-550.2500 Y373.0700 F120.00
G01 X-549.3500 Y373.0700 F120.00
G01 X-549.3500 Y373.0100 F120.00
G01 X-550.2500 Y373.0100 F120.00
G01 X-550.2500 Y372.9500 F120.00
G01 X-549.3500 Y372.9500 F120.00
G01 X-549.3500 Y372.8900 F120.00
G01 X-550.2500 Y372.8900 F120.00
G01 X-550.2500 Y372.8300 F120.00
G01 X-549.3500 Y372.8300 F120.00
G01 X-549.3500 Y372.7700 F120.00
G01 X-550.2500 Y372.7700 F120.00
G01 X-550.2500 Y372.7100 F120.00
G01 X-549.3500 Y372.7100 F120.00
G01 X-549.3500 Y372.6500 F120.00
G01 X-550.2500 Y372.6500 F120.00
G01 X-550.2500 Y372.5900 F120.00
G01 X-549.3500 Y372.5900 F120.00
G01 X-549.3500 Y372.5300 F120.00
G01 X-550.2500 Y372.5300 F120.00
G01 X-550.2500 Y372.4700 F120.00
G01 X-549.3500 Y372.4700 F120.00
G01 X-549.3500 Y372.4100 F120.00
G01 X-550.2500 Y372.4100 F120.00
G01 X-550.2500 Y372.3500 F120.00
G01 X-549.3500 Y372.3500 F120.00
G01 X-549.3500 Y372.2900 F120.00
G01 X-550.2500 Y372.2900 F120.00
G01 X-550.2500 Y372.2300 F120.00
G01 X-549.3500 Y372.2300 F120.00
G01 X-549.3500 Y372.1700 F120.00
G01 X-550.2500 Y372.1700 F120.00
G01 X-550.2500 Y372.1100 F120.00
G01 X-549.3500 Y372.1100 F120.00
G01 X-549.3500 Y372.0500 F120.00
G01 X-550.2500 Y372.0500 F120.00
G01 X-550.2500 Y371.9900 F120.00
G01 X-549.3500 Y371.9900 F120.00
G01 X-549.3500 Y371.9300 F120.00
G01 X-550.2500 Y371.9300 F120.00
G01 X-550.2500 Y371.8700 F120.00
G01 X-549.3500 Y371.8700 F120.00
G01 X-549.3500 Y371.8100 F120.00
G01 X-550.2500 Y371.8100 F120.00
G01 X-550.2500 Y371.7500 F120.00
G01 X-549.3500 Y371.7500 F120.00
G01 X-549.3500 Y371.6900 F120.00
G01 X-550.2500 Y371.6900 F120.00
G01 X-550.2500 Y371.6300 F120.00
G01 X-549.3500 Y371.6300 F120.00
G01 X-549.3500 Y371.5700 F120.00
G01 X-550.2500 Y371.5700 F120.00
G01 X-550.2500 Y371.5100 F120.00
G01 X-549.3500 Y371.5100 F120.00
G01 X-549.3500 Y371.4500 F120.00
G01 X-550.2500 Y371.4500 F120.00
G01 X-550.2500 Y371.3900 F120.00
G01 X-549.3500 Y371.3900 F120.00
G01 X-549.3500 Y371.3300 F120.00
G01 X-550.2500 Y371.3300 F120.00
G01 X-550.2500 Y371.2700 F120.00
G01 X-549.3500 Y371.2700 F120.00
G01 X-549.3500 Y371.2100 F120.00
G01 X-550.2500 Y371.2100 F120.00
G01 X-550.2500 Y371.1500 F120.00
G01 X-549.3500 Y371.1500 F120.00
G01 X-549.3500 Y371.0900 F120.00
G01 X-550.2500 Y371.0900 F120.00
G01 X-550.2500 Y371.0300 F120.00
G01 X-549.3500 Y371.0300 F120.00
G01 X-549.3500 Y370.9700 F120.00
G01 X-550.2500 Y370.9700 F120.00
G01 X-550.2500 Y370.9100 F120.00
G01 X-549.3500 Y370.9100 F120.00
G01 X-549.3500 Y370.8500 F120.00
G01 X-550.2500 Y370.8500 F120.00
G01 X-550.2500 Y370.7900 F120.00
G01 X-549.3500 Y370.7900 F120.00
G01 X-549.3500 Y370.7300 F120.00
G01 X-550.2500 Y370.7300 F120.00
G01 X-550.2500 Y370.6700 F120.00
G01 X-549.3500 Y370.6700 F120.00
G01 X-549.3500 Y370.6100 F120.00
G01 X-550.2500 Y370.6100 F120.00
G01 X-550.2500 Y370.5500 F120.00
G01 X-549.3500 Y370.5500 F120.00
G01 X-549.3500 Y370.4900 F120.00
G01 X-550.2500 Y370.4900 F120.00
G01 X-550.2500 Y370.4300 F120.00
G01 X-549.3500 Y370.4300 F120.00
G01 X-549.3500 Y370.3700 F120.00
G01 X-550.2500 Y370.3700 F120.00
G01 X-550.2500 Y370.3100 F120.00
G01 X-549.3500 Y370.3100 F120.00
G01 X-549.3500 Y370.2500 F120.00
G01 X-550.2500 Y370.2500 F120.00
G01 X-550.2500 Y370.1900 F120.00
G01 X-549.3500 Y370.1900 F120.00
G01 X-549.3500 Y370.1300 F120.00
G01 X-550.2500 Y370.1300 F120.00
G01 X-550.2500 Y370.0700 F120.00
G01 X-549.3500 Y370.0700 F120.00
G01 X-549.3500 Y370.0100 F120.00
G01 X-550.2500 Y370.0100 F120.00
G01 X-550.2500 Y369.9500 F120.00
G01 X-549.3500 Y369.9500 F120.00
G01 X-549.3500 Y369.8900 F120.00
G01 X-550.2500 Y369.8900 F120.00
G01 X-550.2500 Y369.8300 F120.00
G01 X-549.3500 Y369.8300 F120.00
G01 X-549.3500 Y369.7700 F120.00
G01 X-550.2500 Y369.7700 F120.00
G01 X-550.2500 Y369.7100 F120.00
G01 X-549.3500 Y369.7100 F120.00
G01 X-549.3500 Y369.6500 F120.00
G01 X-550.2500 Y369.6500 F120.00
G01 X-550.2500 Y369.5900 F120.00
G01 X-549.3500 Y369.5900 F120.00
G01 X-549.3500 Y369.5300 F120.00
G01 X-550.2500 Y369.5300 F120.00
G01 X-550.2500 Y369.4700 F120.00
G01 X-549.3500 Y369.4700 F120.00
G01 X-549.3500 Y369.4100 F120.00
G01 X-550.2500 Y369.4100 F120.00
G01 X-550.2500 Y369.3500 F120.00
G01 X-549.3500 Y369.3500 F120.00
G01 X-549.3500 Y369.2900 F120.00
G01 X-550.2500 Y369.2900 F120.00
G01 X-550.2500 Y369.2300 F120.00
G01 X-549.3500 Y369.2300 F120.00
G01 X-549.3500 Y369.1700 F120.00
G01 X-550.2500 Y369.1700 F120.00
G01 X-550.2500 Y369.1100 F120.00
G01 X-549.3500 Y369.1100 F120.00
G01 X-549.3500 Y369.0500 F120.00
G01 X-550.2500 Y369.0500 F120.00
G01 X-550.2500 Y368.9900 F120.00
G01 X-549.3500 Y368.9900 F120.00
G01 X-549.3500 Y368.9300 F120.00
G01 X-550.2500 Y368.9300 F120.00
G01 X-550.2500 Y368.8700 F120.00
G01 X-549.3500 Y368.8700 F120.00
G01 X-549.3500 Y368.8100 F120.00
G01 X-550.2500 Y368.8100 F120.00
G01 X-550.2500 Y368.7500 F120.00
G01 X-549.3500 Y368.7500 F120.00
G01 X-549.3500 Y368.6900 F120.00
G01 X-550.2500 Y368.6900 F120.00
G01 X-550.2500 Y368.6300 F120.00
G01 X-549.3500 Y368.6300 F120.00
G01 X-549.3500 Y368.5700 F120.00
G01 X-550.2500 Y368.5700 F120.00
G01 X-550.2500 Y368.5100 F120.00
G01 X-549.3500 Y368.5100 F120.00
G01 X-549.3500 Y368.4500 F120.00
G01 X-550.2500 Y368.4500 F120.00
G01 X-550.2500 Y368.3900 F120.00
G01 X-549.3500 Y368.3900 F120.00
G01 X-549.3500 Y368.3300 F120.00
G01 X-550.2500 Y368.3300 F120.00
G01 X-550.2500 Y368.2700 F120.00
G01 X-549.3500 Y368.2700 F120.00
G01 X-549.3500 Y368.2100 F120.00
G01 X-550.2500 Y368.2100 F120.00
G01 X-550.2500 Y368.1500 F120.00
G01 X-549.3500 Y368.1500 F120.00
G01 X-549.3500 Y368.0900 F120.00
G01 X-550.2500 Y368.0900 F120.00
G01 X-550.2500 Y368.0300 F120.00
G01 X-549.3500 Y368.0300 F120.00
G01 X-549.3500 Y367.9700 F120.00
G01 X-550.2500 Y367.9700 F120.00
G01 X-550.2500 Y367.9100 F120.00
G01 X-549.3500 Y367.9100 F120.00
G01 X-549.3500 Y367.8500 F120.00
G01 X-550.2500 Y367.8500 F120.00
G01 X-550.2500 Y367.7900 F120.00
G01 X-549.3500 Y367.7900 F120.00
G01 X-549.3500 Y367.7300 F120.00
G01 X-550.2500 Y367.7300 F120.00
G01 X-550.2500 Y367.6700 F120.00
G01 X-549.3500 Y367.6700 F120.00
G01 X-549.3500 Y367.6100 F120.00
G01 X-550.2500 Y367.6100 F120.00
G01 X-550.2500 Y367.5500 F120.00
G01 X-549.3500 Y367.5500 F120.00
G01 X-549.3500 Y367.4900 F120.00
G01 X-550.2500 Y367.4900 F120.00
G01 X-550.2500 Y367.4300 F120.00
G01 X-549.3500 Y367.4300 F120.00
G01 X-549.3500 Y367.3700 F120.00
G01 X-550.2500 Y367.3700 F120.00
G01 X-550.2500 Y367.3100 F120.00
G01 X-549.3500 Y367.3100 F120.00
G01 X-549.3500 Y367.2500 F120.00
G01 X-550.2500 Y367.2500 F120.00
G01 X-550.2500 Y367.1900 F120.00
G01 X-549.3500 Y367.1900 F120.00
G01 X-549.3500 Y367.1300 F120.00
G01 X-550.2500 Y367.1300 F120.00
G01 X-550.2500 Y367.0700 F120.00
G01 X-549.3500 Y367.0700 F120.00
G01 X-549.3500 Y367.0100 F120.00
G01 X-550.2500 Y367.0100 F120.00
G01 X-550.2500 Y366.9500 F120.00
G01 X-549.3500 Y366.9500 F120.00
G01 X-549.3500 Y366.8900 F120.00
G01 X-550.2500 Y366.8900 F120.00
G01 X-550.2500 Y366.8300 F120.00
G01 X-549.3500 Y366.8300 F120.00
G01 X-549.3500 Y366.7700 F120.00
G01 X-550.2500 Y366.7700 F120.00
G01 X-550.2500 Y366.7100 F120.00
G01 X-549.3500 Y366.7100 F120.00
G01 X-549.3500 Y366.6500 F120.00
G01 X-550.2500 Y366.6500 F120.00
G01 X-550.2500 Y366.5900 F120.00
G01 X-549.3500 Y366.5900 F120.00
G01 X-549.3500 Y366.5300 F120.00
G01 X-550.2500 Y366.5300 F120.00
G01 X-550.2500 Y366.4700 F120.00
G01 X-549.3500 Y366.4700 F120.00
G01 X-549.3500 Y366.4100 F120.00
G01 X-550.2500 Y366.4100 F120.00
G01 X-550.2500 Y366.3500 F120.00
G01 X-549.3500 Y366.3500 F120.00
G01 X-549.3500 Y366.2900 F120.00
G01 X-550.2500 Y366.2900 F120.00
G01 X-550.2500 Y366.2300 F120.00
G01 X-549.3500 Y366.2300 F120.00
G01 X-549.3500 Y366.1700 F120.00
G01 X-550.2500 Y366.1700 F120.00
G01 X-550.2500 Y366.1100 F120.00
G01 X-549.3500 Y366.1100 F120.00
G01 X-549.3500 Y366.0500 F120.00
G01 X-550.2500 Y366.0500 F120.00
G01 X-550.2500 Y365.9900 F120.00
G01 X-549.3500 Y365.9900 F120.00
G01 X-549.3500 Y365.9300 F120.00
G01 X-550.2500 Y365.9300 F120.00
G01 X-550.2500 Y365.8700 F120.00
G01 X-549.3500 Y365.8700 F120.00
G01 X-549.3500 Y365.8100 F120.00
G01 X-550.2500 Y365.8100 F120.00
G01 X-550.2500 Y365.7500 F120.00
G01 X-549.3500 Y365.7500 F120.00
G01 X-549.3500 Y365.6900 F120.00
G01 X-550.2500 Y365.6900 F120.00
G01 X-550.2500 Y365.6300 F120.00
G01 X-549.3500 Y365.6300 F120.00
G01 X-549.3500 Y365.5700 F120.00
G01 X-550.2500 Y365.5700 F120.00
G01 X-550.2500 Y365.5100 F120.00
G01 X-549.3500 Y365.5100 F120.00
G01 X-549.3500 Y365.4500 F120.00
G01 X-550.2500 Y365.4500 F120.00
G01 X-550.2500 Y365.3900 F120.00
G01 X-549.3500 Y365.3900 F120.00
G01 X-549.3500 Y365.3300 F120.00
G01 X-550.2500 Y365.3300 F120.00
G01 X-550.2500 Y365.2700 F120.00
G01 X-549.3500 Y365.2700 F120.00
G01 X-549.3500 Y365.2100 F120.00
G01 X-550.2500 Y365.2100 F120.00
G01 X-550.2500 Y365.1500 F120.00
G01 X-549.3500 Y365.1500 F120.00
G01 X-549.3500 Y365.0900 F120.00
G01 X-550.2500 Y365.0900 F120.00
G01 X-550.2500 Y365.0300 F120.00
G01 X-549.3500 Y365.0300 F120.00
G01 X-549.3500 Y364.9700 F120.00
G01 X-550.2500 Y364.9700 F120.00
G01 X-550.2500 Y364.9100 F120.00
G01 X-549.3500 Y364.9100 F120.00
G01 X-549.3500 Y364.8500 F120.00
G01 X-550.2500 Y364.8500 F120.00
G01 X-550.2500 Y364.7900 F120.00
G01 X-549.3500 Y364.7900 F120.00
G01 X-549.3500 Y364.7300 F120.00
G01 X-550.2500 Y364.7300 F120.00
G01 X-550.2500 Y364.6700 F120.00
G01 X-549.3500 Y364.6700 F120.00
G01 X-549.3500 Y364.6100 F120.00
G01 X-550.2500 Y364.6100 F120.00
G01 X-550.2500 Y364.5500 F120.00
G01 X-549.3500 Y364.5500 F120.00
G01 X-549.3500 Y364.4900 F120.00
G01 X-550.2500 Y364.4900 F120.00
G01 X-550.2500 Y364.4300 F120.00
G01 X-549.3500 Y364.4300 F120.00
G01 X-549.3500 Y364.3700 F120.00
G01 X-550.2500 Y364.3700 F120.00
G01 X-550.2500 Y364.3100 F120.00
G01 X-549.3500 Y364.3100 F120.00
G01 X-549.3500 Y364.2500 F120.00
G01 X-550.2500 Y364.2500 F120.00
G01 X-550.2500 Y364.1900 F120.00
G01 X-549.3500 Y364.1900 F120.00
G01 X-549.3500 Y364.1300 F120.00
G01 X-550.2500 Y364.1300 F120.00
G01 X-550.2500 Y364.0700 F120.00
G01 X-549.3500 Y364.0700 F120.00
G01 X-549.3500 Y364.0100 F120.00
G01 X-550.2500 Y364.0100 F120.00
G01 X-550.2500 Y363.9500 F120.00
G01 X-549.3500 Y363.9500 F120.00
G01 X-549.3500 Y363.8900 F120.00
G01 X-550.2500 Y363.8900 F120.00
G01 X-550.2500 Y363.8300 F120.00
G01 X-549.3500 Y363.8300 F120.00
G01 X-549.3500 Y363.7700 F120.00
G01 X-550.2500 Y363.7700 F120.00
G01 X-550.2500 Y363.7100 F120.00
G01 X-549.3500 Y363.7100 F120.00
G01 X-549.3500 Y363.6500 F120.00
G01 X-550.2500 Y363.6500 F120.00
G01 X-550.2500 Y363.5900 F120.00
G01 X-549.3500 Y363.5900 F120.00
G01 X-549.3500 Y363.5300 F120.00
G01 X-550.2500 Y363.5300 F120.00
G01 X-550.2500 Y363.4700 F120.00
G01 X-549.3500 Y363.4700 F120.00
G01 X-549.3500 Y363.4100 F120.00
G01 X-550.2500 Y363.4100 F120.00
G01 X-550.2500 Y363.3500 F120.00
G01 X-549.3500 Y363.3500 F120.00
G01 X-549.3500 Y363.2900 F120.00
G01 X-550.2500 Y363.2900 F120.00
G01 X-550.2500 Y363.2300 F120.00
G01 X-549.3500 Y363.2300 F120.00
G01 X-549.3500 Y363.1700 F120.00
G01 X-550.2500 Y363.1700 F120.00
G01 X-550.2500 Y363.1100 F120.00
G01 X-549.3500 Y363.1100 F120.00
G01 X-549.3500 Y363.0500 F120.00
G01 X-550.2500 Y363.0500 F120.00
G01 X-550.2500 Y362.9900 F120.00
G01 X-549.3500 Y362.9900 F120.00
G01 X-549.3500 Y362.9300 F120.00
G01 X-550.2500 Y362.9300 F120.00
G01 X-550.2500 Y362.8700 F120.00
G01 X-549.3500 Y362.8700 F120.00
G01 X-549.3500 Y362.8100 F120.00
G01 X-550.2500 Y362.8100 F120.00
G01 X-550.2500 Y362.7500 F120.00
G01 X-549.3500 Y362.7500 F120.00
G01 X-549.3500 Y362.6900 F120.00
G01 X-550.2500 Y362.6900 F120.00
G01 X-550.2500 Y362.6300 F120.00
G01 X-549.3500 Y362.6300 F120.00
G01 X-549.3500 Y362.5700 F120.00
G01 X-550.2500 Y362.5700 F120.00
G01 X-550.2500 Y362.5100 F120.00
G01 X-549.3500 Y362.5100 F120.00
G01 X-549.3500 Y362.4500 F120.00
G01 X-550.2500 Y362.4500 F120.00
G01 X-550.2500 Y362.3900 F120.00
G01 X-549.3500 Y362.3900 F120.00
G01 X-549.3500 Y362.3300 F120.00
G01 X-550.2500 Y362.3300 F120.00
G01 X-550.2500 Y362.2700 F120.00
G01 X-549.3500 Y362.2700 F120.00
G01 X-549.3500 Y362.2100 F120.00
G01 X-550.2500 Y362.2100 F120.00
G01 X-550.2500 Y362.1500 F120.00
G01 X-549.3500 Y362.1500 F120.00
G01 X-549.3500 Y362.0900 F120.00
G01 X-550.2500 Y362.0900 F120.00
G01 X-550.2500 Y362.0300 F120.00
G01 X-549.3500 Y362.0300 F120.00
G01 X-549.3500 Y361.9700 F120.00
G01 X-550.2500 Y361.9700 F120.00
G01 X-550.2500 Y361.9100 F120.00
G01 X-549.3500 Y361.9100 F120.00
G01 X-549.3500 Y361.8500 F120.00
G01 X-550.2500 Y361.8500 F120.00
G01 X-550.2500 Y361.7900 F120.00
G01 X-549.3500 Y361.7900 F120.00
G01 X-549.3500 Y361.7300 F120.00
G01 X-550.2500 Y361.7300 F120.00
G01 X-550.2500 Y361.6700 F120.00
G01 X-549.3500 Y361.6700 F120.00
G01 X-549.3500 Y361.6100 F120.00
G01 X-550.2500 Y361.6100 F120.00
G01 X-550.2500 Y361.5500 F120.00
G01 X-549.3500 Y361.5500 F120.00
G01 X-549.3500 Y361.4900 F120.00
G01 X-550.2500 Y361.4900 F120.00
G01 X-550.2500 Y361.4300 F120.00
G01 X-549.3500 Y361.4300 F120.00
G01 X-549.3500 Y361.3700 F120.00
G01 X-550.2500 Y361.3700 F120.00
G01 X-550.2500 Y361.3100 F120.00
G01 X-549.3500 Y361.3100 F120.00
G01 X-549.3500 Y361.2500 F120.00
G01 X-550.2500 Y361.2500 F120.00
G01 X-550.2500 Y361.1900 F120.00
G01 X-549.3500 Y361.1900 F120.00
G01 X-549.3500 Y361.1300 F120.00
G01 X-550.2500 Y361.1300 F120.00
G01 X-550.2500 Y361.0700 F120.00
G01 X-549.3500 Y361.0700 F120.00
G01 X-549.3500 Y361.0100 F120.00
G01 X-550.2500 Y361.0100 F120.00
G01 X-550.2500 Y360.9500 F120.00
G01 X-549.3500 Y360.9500 F120.00
G01 X-549.3500 Y360.8900 F120.00
G01 X-550.2500 Y360.8900 F120.00
G01 X-550.2500 Y360.8300 F120.00
G01 X-549.3500 Y360.8300 F120.00
G01 X-549.3500 Y360.7700 F120.00
G01 X-550.2500 Y360.7700 F120.00
G01 X-550.2500 Y360.7100 F120.00
G01 X-549.3500 Y360.7100 F120.00
G01 X-549.3500 Y360.6500 F120.00
G01 X-550.2500 Y360.6500 F120.00
G01 X-550.2500 Y360.5900 F120.00
G01 X-549.3500 Y360.5900 F120.00
G01 X-549.3500 Y360.5300 F120.00
G01 X-550.2500 Y360.5300 F120.00
G01 X-550.2500 Y360.4700 F120.00
G01 X-549.3500 Y360.4700 F120.00
G01 X-549.3500 Y360.4100 F120.00
G01 X-550.2500 Y360.4100 F120.00
G01 X-550.2500 Y360.3500 F120.00
G01 X-549.3500 Y360.3500 F120.00
G01 X-549.3500 Y360.2900 F120.00
G01 X-550.2500 Y360.2900 F120.00
G01 X-550.2500 Y360.2300 F120.00
G01 X-549.3500 Y360.2300 F120.00
M5
G00 X-549.3490 Y360.1700
G01 F60.00
M03
G01 F120.00
G01 X-550.2500 Y360.1700 F120.00
M5
G00 X-548.7316 Y361.7300
G01 F60.00
M03
G01 F120.00
G01 X-545.2684 Y361.7300 F120.00
G01 X-545.3129 Y361.6700 F120.00
G01 X-548.6871 Y361.6700 F120.00
G01 X-548.6383 Y361.6100 F120.00
G01 X-545.3617 Y361.6100 F120.00
G01 X-545.4161 Y361.5500 F120.00
G01 X-548.5839 Y361.5500 F120.00
G01 X-548.5295 Y361.4900 F120.00
G01 X-545.4705 Y361.4900 F120.00
G01 X-545.5347 Y361.4300 F120.00
G01 X-548.4653 Y361.4300 F120.00
G01 X-548.3991 Y361.3700 F120.00
G01 X-545.6009 Y361.3700 F120.00
G01 X-545.6739 Y361.3100 F120.00
G01 X-548.3261 Y361.3100 F120.00
G01 X-548.2452 Y361.2500 F120.00
G01 X-545.7548 Y361.2500 F120.00
G01 X-545.8429 Y361.1900 F120.00
G01 X-548.1571 Y361.1900 F120.00
G01 X-548.0570 Y361.1300 F120.00
G01 X-545.9430 Y361.1300 F120.00
G01 X-546.0582 Y361.0700 F120.00
G01 X-547.9418 Y361.0700 F120.00
G01 X-547.8124 Y361.0100 F120.00
G01 X-546.1876 Y361.0100 F120.00
G01 X-546.3553 Y360.9500 F120.00
G01 X-547.6447 Y360.9500 F120.00
G01 X-547.4102 Y360.8900 F120.00
G01 X-546.5898 Y360.8900 F120.00
M5
G00 X-548.7761 Y361.7900
G01 F60.00
M03
G01 F120.00
G01 X-545.2239 Y361.7900 F120.00
G01 X-545.1858 Y361.8500 F120.00
G01 X-548.8142 Y361.8500 F120.00
G01 X-548.8502 Y361.9100 F120.00
G01 X-545.1498 Y361.9100 F120.00
G01 X-545.1138 Y361.9700 F120.00
G01 X-548.8862 Y361.9700 F120.00
G01 X-548.9166 Y362.0300 F120.00
G01 X-545.0834 Y362.0300 F120.00
G01 X-545.0550 Y362.0900 F120.00
G01 X-548.9450 Y362.0900 F120.00
G01 X-548.9734 Y362.1500 F120.00
G01 X-545.0266 Y362.1500 F120.00
G01 X-545.0020 Y362.2100 F120.00
G01 X-548.9980 Y362.2100 F120.00
G01 X-549.0195 Y362.2700 F120.00
G01 X-544.9805 Y362.2700 F120.00
G01 X-544.9591 Y362.3300 F120.00
G01 X-549.0409 Y362.3300 F120.00
G01 X-549.0609 Y362.3900 F120.00
G01 X-544.9391 Y362.3900 F120.00
G01 X-544.9241 Y362.4500 F120.00
G01 X-549.0759 Y362.4500 F120.00
G01 X-549.0910 Y362.5100 F120.00
G01 X-544.9090 Y362.5100 F120.00
G01 X-544.8940 Y362.5700 F120.00
G01 X-549.1060 Y362.5700 F120.00
G01 X-549.1160 Y362.6300 F120.00
G01 X-544.8840 Y362.6300 F120.00
G01 X-544.8751 Y362.6900 F120.00
G01 X-549.1249 Y362.6900 F120.00
G01 X-549.1338 Y362.7500 F120.00
G01 X-544.8662 Y362.7500 F120.00
G01 X-544.8594 Y362.8100 F120.00
G01 X-549.1406 Y362.8100 F120.00
G01 X-549.1436 Y362.8700 F120.00
G01 X-544.8564 Y362.8700 F120.00
G01 X-544.8535 Y362.9300 F120.00
G01 X-549.1465 Y362.9300 F120.00
G01 X-549.1494 Y362.9900 F120.00
G01 X-544.8506 Y362.9900 F120.00
G01 X-544.8501 Y363.0000 F120.00
G01 X-544.8604 Y362.7893 F120.00
G01 X-544.8914 Y362.5806 F120.00
G01 X-544.9426 Y362.3759 F120.00
G01 X-545.0137 Y362.1773 F120.00
G01 X-545.1039 Y361.9865 F120.00
G01 X-545.2124 Y361.8056 F120.00
G01 X-545.3381 Y361.6361 F120.00
G01 X-545.4798 Y361.4798 F120.00
G01 X-545.6361 Y361.3381 F120.00
G01 X-545.8056 Y361.2124 F120.00
G01 X-545.9865 Y361.1039 F120.00
G01 X-546.1773 Y361.0137 F120.00
G01 X-546.3759 Y360.9426 F120.00
G01 X-546.5806 Y360.8914 F120.00
G01 X-546.7893 Y360.8604 F120.00
G01 X-547.0000 Y360.8501 F120.00
G01 X-547.2107 Y360.8604 F120.00
G01 X-547.4194 Y360.8914 F120.00
G01 X-547.6241 Y360.9426 F120.00
G01 X-547.8227 Y361.0137 F120.00
G01 X-548.0135 Y361.1039 F120.00
G01 X-548.1944 Y361.2124 F120.00
G01 X-548.3639 Y361.3381 F120.00
G01 X-548.5202 Y361.4798 F120.00
G01 X-548.6619 Y361.6361 F120.00
G01 X-548.7876 Y361.8056 F120.00
G01 X-548.8961 Y361.9865 F120.00
G01 X-548.9863 Y362.1773 F120.00
G01 X-549.0574 Y362.3759 F120.00
G01 X-549.1086 Y362.5806 F120.00
G01 X-549.1396 Y362.7893 F120.00
G01 X-549.1499 Y363.0000 F120.00
G01 X-549.1396 Y363.2107 F120.00
G01 X-549.1086 Y363.4194 F120.00
G01 X-549.0574 Y363.6241 F120.00
G01 X-548.9863 Y363.8227 F120.00
G01 X-548.8961 Y364.0135 F120.00
G01 X-548.7876 Y364.1944 F120.00
G01 X-548.6619 Y364.3639 F120.00
G01 X-548.5202 Y364.5202 F120.00
G01 X-548.3639 Y364.6619 F120.00
G01 X-548.1944 Y364.7876 F120.00
G01 X-548.0135 Y364.8961 F120.00
G01 X-547.8227 Y364.9863 F120.00
G01 X-547.6241 Y365.0574 F120.00
G01 X-547.4194 Y365.1086 F120.00
G01 X-547.2107 Y365.1396 F120.00
G01 X-547.0000 Y365.1499 F120.00
G01 X-546.7893 Y365.1396 F120.00
G01 X-546.5806 Y365.1086 F120.00
G01 X-546.3759 Y365.0574 F120.00
G01 X-546.1773 Y364.9863 F120.00
G01 X-545.9865 Y364.8961 F120.00
G01 X-545.8056 Y364.7876 F120.00
G01 X-545.6361 Y364.6619 F120.00
G01 X-545.4798 Y364.5202 F120.00
G01 X-545.3381 Y364.3639 F120.00
G01 X-545.2124 Y364.1944 F120.00
G01 X-545.1039 Y364.0135 F120.00
G01 X-545.0137 Y363.8227 F120.00
G01 X-544.9426 Y363.6241 F120.00
G01 X-544.8914 Y363.4194 F120.00
G01 X-544.8604 Y363.2107 F120.00
G01 X-544.8501 Y363.0000 F120.00
G01 X-544.8525 Y363.0500 F120.00
G01 X-549.1475 Y363.0500 F120.00
G01 X-549.1445 Y363.1100 F120.00
G01 X-544.8555 Y363.1100 F120.00
G01 X-544.8584 Y363.1700 F120.00
G01 X-549.1416 Y363.1700 F120.00
G01 X-549.1367 Y363.2300 F120.00
G01 X-544.8633 Y363.2300 F120.00
G01 X-544.8722 Y363.2900 F120.00
G01 X-549.1278 Y363.2900 F120.00
G01 X-549.1189 Y363.3500 F120.00
G01 X-544.8811 Y363.3500 F120.00
G01 X-544.8900 Y363.4100 F120.00
G01 X-549.1100 Y363.4100 F120.00
G01 X-549.0960 Y363.4700 F120.00
G01 X-544.9040 Y363.4700 F120.00
G01 X-544.9191 Y363.5300 F120.00
G01 X-549.0809 Y363.5300 F120.00
G01 X-549.0659 Y363.5900 F120.00
G01 X-544.9341 Y363.5900 F120.00
G01 X-544.9519 Y363.6500 F120.00
G01 X-549.0481 Y363.6500 F120.00
G01 X-549.0266 Y363.7100 F120.00
G01 X-544.9734 Y363.7100 F120.00
G01 X-544.9948 Y363.7700 F120.00
G01 X-549.0052 Y363.7700 F120.00
G01 X-548.9829 Y363.8300 F120.00
G01 X-545.0171 Y363.8300 F120.00
G01 X-545.0455 Y363.8900 F120.00
G01 X-548.9545 Y363.8900 F120.00
G01 X-548.9261 Y363.9500 F120.00
G01 X-545.0739 Y363.9500 F120.00
G01 X-545.1023 Y364.0100 F120.00
G01 X-548.8977 Y364.0100 F120.00
G01 X-548.8622 Y364.0700 F120.00
G01 X-545.1378 Y364.0700 F120.00
G01 X-545.1738 Y364.1300 F120.00
G01 X-548.8262 Y364.1300 F120.00
G01 X-548.7903 Y364.1900 F120.00
G01 X-545.2097 Y364.1900 F120.00
G01 X-545.2536 Y364.2500 F120.00
G01 X-548.7464 Y364.2500 F120.00
G01 X-548.7019 Y364.3100 F120.00
G01 X-545.2981 Y364.3100 F120.00
G01 X-545.3436 Y364.3700 F120.00
G01 X-548.6564 Y364.3700 F120.00
G01 X-548.6020 Y364.4300 F120.00
G01 X-545.3980 Y364.4300 F120.00
G01 X-545.4524 Y364.4900 F120.00
G01 X-548.5476 Y364.4900 F120.00
G01 X-548.4874 Y364.5500 F120.00
G01 X-545.5126 Y364.5500 F120.00
G01 X-545.5788 Y364.6100 F120.00
G01 X-548.4212 Y364.6100 F120.00
G01 X-548.3530 Y364.6700 F120.00
G01 X-545.6470 Y364.6700 F120.00
G01 X-545.7279 Y364.7300 F120.00
G01 X-548.2721 Y364.7300 F120.00
G01 X-548.1905 Y364.7900 F120.00
G01 X-545.8095 Y364.7900 F120.00
G01 X-545.9096 Y364.8500 F120.00
G01 X-548.0904 Y364.8500 F120.00
G01 X-547.9840 Y364.9100 F120.00
G01 X-546.0160 Y364.9100 F120.00
G01 X-546.1428 Y364.9700 F120.00
G01 X-547.8572 Y364.9700 F120.00
G01 X-547.7006 Y365.0300 F120.00
G01 X-546.2994 Y365.0300 F120.00
G01 X-546.5062 Y365.0900 F120.00
G01 X-547.4938 Y365.0900 F120.00
M5
G00 X-543.3351 Y364.0734
G01 F60.00
M03
G01 F120.00
G01 X-543.3434 Y364.1067 F120.00
G01 X-543.3485 Y364.1407 F120.00
G01 X-543.3502 Y364.1762 F120.00
G01 X-543.3502 Y369.8172 F120.00
G01 X-543.3505 Y369.8231 F120.00
G01 X-543.3513 Y369.8277 F120.00
G01 X-543.3529 Y369.8334 F120.00
G01 X-543.3551 Y369.8389 F120.00
G01 X-543.3580 Y369.8440 F120.00
G01 X-543.3615 Y369.8488 F120.00
G01 X-543.3655 Y369.8531 F120.00
G01 X-543.3699 Y369.8570 F120.00
G01 X-543.3738 Y369.8597 F120.00
G01 X-543.3823 Y369.8639 F120.00
G01 X-543.4592 Y369.8914 F120.00
G01 X-543.5656 Y369.9417 F120.00
G01 X-543.6667 Y370.0023 F120.00
G01 X-543.7612 Y370.0724 F120.00
G01 X-543.8485 Y370.1515 F120.00
G01 X-543.9276 Y370.2388 F120.00
G01 X-543.9977 Y370.3333 F120.00
G01 X-544.0583 Y370.4344 F120.00
G01 X-544.1086 Y370.5408 F120.00
G01 X-544.1483 Y370.6517 F120.00
G01 X-544.1769 Y370.7659 F120.00
G01 X-544.1942 Y370.8824 F120.00
G01 X-544.1999 Y371.0000 F120.00
G01 X-544.1942 Y371.1176 F120.00
G01 X-544.1769 Y371.2341 F120.00
G01 X-544.1483 Y371.3483 F120.00
G01 X-544.1086 Y371.4592 F120.00
G01 X-544.0583 Y371.5656 F120.00
G01 X-543.9977 Y371.6667 F120.00
G01 X-543.9276 Y371.7612 F120.00
G01 X-543.8485 Y371.8485 F120.00
G01 X-543.7612 Y371.9276 F120.00
G01 X-543.6667 Y371.9977 F120.00
G01 X-543.5656 Y372.0583 F120.00
G01 X-543.4592 Y372.1086 F120.00
G01 X-543.3483 Y372.1483 F120.00
G01 X-543.2341 Y372.1769 F120.00
G01 X-543.1177 Y372.1941 F120.00
G01 X-543.1127 Y372.1951 F120.00
G01 X-543.1079 Y372.1966 F120.00
G01 X-543.1021 Y372.1992 F120.00
G01 X-543.0977 Y372.2018 F120.00
G01 X-543.0926 Y372.2056 F120.00
G01 X-543.0880 Y372.2100 F120.00
G01 X-543.0841 Y372.2150 F120.00
G01 X-543.0814 Y372.2193 F120.00
G01 X-543.0787 Y372.2250 F120.00
G01 X-543.0767 Y372.2310 F120.00
G01 X-543.0755 Y372.2373 F120.00
G01 X-543.0751 Y372.2436 F120.00
G01 X-543.0751 Y375.2238 F120.00
G01 X-543.0746 Y375.2324 F120.00
G01 X-543.0736 Y375.2396 F120.00
G01 X-543.0718 Y375.2468 F120.00
G01 X-543.0693 Y375.2537 F120.00
G01 X-543.0661 Y375.2604 F120.00
G01 X-543.0624 Y375.2667 F120.00
G01 X-543.0580 Y375.2726 F120.00
G01 X-543.0522 Y375.2789 F120.00
G01 X-541.5289 Y376.8022 F120.00
G01 X-541.5226 Y376.8080 F120.00
G01 X-541.5167 Y376.8124 F120.00
G01 X-541.5104 Y376.8161 F120.00
G01 X-541.5037 Y376.8193 F120.00
G01 X-541.4968 Y376.8218 F120.00
G01 X-541.4896 Y376.8236 F120.00
G01 X-541.4824 Y376.8246 F120.00
G01 X-541.4738 Y376.8251 F120.00
G01 X-538.4463 Y376.8252 F120.00
G01 X-538.4379 Y376.8266 F120.00
G01 X-538.4309 Y376.8289 F120.00
G01 X-538.4233 Y376.8328 F120.00
G01 X-538.4164 Y376.8380 F120.00
G01 X-538.4113 Y376.8433 F120.00
G01 X-538.4065 Y376.8504 F120.00
G01 X-538.4029 Y376.8582 F120.00
G01 X-538.4007 Y376.8665 F120.00
G01 X-538.4000 Y376.8751 F120.00
G01 X-538.4000 Y377.1000 F120.00
G01 X-537.6000 Y377.1000 F120.00
G01 X-537.6000 Y376.4000 F120.00
G01 X-538.4000 Y376.4000 F120.00
G01 X-538.4000 Y376.6249 F120.00
G01 X-538.4007 Y376.6335 F120.00
G01 X-538.4029 Y376.6418 F120.00
G01 X-538.4065 Y376.6496 F120.00
G01 X-538.4113 Y376.6567 F120.00
G01 X-538.4164 Y376.6620 F120.00
G01 X-538.4233 Y376.6672 F120.00
G01 X-538.4309 Y376.6711 F120.00
G01 X-538.4379 Y376.6734 F120.00
G01 X-538.4463 Y376.6748 F120.00
G01 X-541.4232 Y376.6749 F120.00
G01 X-541.4317 Y376.6742 F120.00
G01 X-541.4400 Y376.6720 F120.00
G01 X-541.4446 Y376.6701 F120.00
G01 X-541.4499 Y376.6672 F120.00
G01 X-541.4549 Y376.6636 F120.00
G01 X-541.4586 Y376.6603 F120.00
G01 X-542.9103 Y375.2086 F120.00
G01 X-542.9165 Y375.2010 F120.00
G01 X-542.9206 Y375.1935 F120.00
G01 X-542.9237 Y375.1842 F120.00
G01 X-542.9249 Y375.1744 F120.00
